!!!COM: L van Beethoven
!!!OTL: String Quartet Op18 No3
**kern	**dynam	**kern	**dynam	**kern	**dynam	**kern	**dynam	**mxhm
*part4	*part4	*part3	*part3	*part2	*part2	*part1	*part1	*part1
*staff4	*	*staff3	*	*staff2	*	*staff1	*	*
*I"Violoncello	*	*I"Viola	*	*I"Violin II	*	*I"Violin I	*	*
*clefF4	*	*clefC3	*	*clefG2	*	*clefG2	*	*
*k[b-e-a-d-g-]	*	*k[b-e-a-d-g-]	*	*k[b-e-a-d-g-]	*	*k[b-e-a-d-g-]	*	*
*D-:	*	*D-:	*	*D-:	*	*D-:	*	*
*M2/4	*	*M2/4	*	*M2/4	*	*M2/4	*	*
=1	=1	=1	=1	=1	=1	=1	=1	=1
!	!	!	!	!	!	!LO:TX:a:B:t=Andante con moto	!	!
!	!	!	!	!	!	!LO:TX:a:B:t=Andante con moto	!	!
*MM50	*	*MM50	*	*MM50	*	*MM50	*	*
!	!	!	!	!	!	!LO:TX:a:t=[quarter]=50	!	!
(4D-	p <	4A-	p <	(8d-L	p <	(4d-	p <	I
.	.	.	.	8f	.	.	.	.
8CL	[ >	(8A-'L	[ >	8g-	[ >	8e-L	[ >	V65
8D-J)	]]	8A-'J)	]]	8fJ)	]]	8d-J)	]]	I
=2	=2	=2	=2	=2	=2	=2	=2	=2
(8.AA-L	<	4A-	<	(8e-L	<	(4c	<	V7
.	.	.	.	8g-	.	.	.	.
16E-K	.	.	.	.	.	.	.	.
8D	[ >	(8A-'L	[ >	8a-	[ >	8BXL	[ >	#vio65
8E-J)	]]	8A-'J)	]]	8g-J)	]]	8cJ)	]]	V7
=3	=3	=3	=3	=3	=3	=3	=3	=3
(8.AA-L	<	(4A-	<	(8fL	<	4d-	<	I64
.	.	.	.	8a-	.	.	.	.
16FK	.	.	.	.	.	.	.	.
8EX	[ >	8G-L	[ >	8b-	[ >	(8d-'L	[ >	#iio7
8FJ)	]]	8A-J)	]]	8a-J)	]]	8d-'J)	]]	I6
=4	=4	=4	=4	=4	=4	=4	=4	=4
(4E-	.	(8B-L	.	(16a-LL	.	8d-	.	V7/V
.	.	.	.	16g	.	.	.	.
.	.	[8d-J)	.	16f	.	8r	.	.
.	.	.	.	16e-JJ)	.	.	.	.
4A-)	.	(16d-LL]	.	(8.a-L	.	4r	.	V7
.	.	16c	.	.	.	.	.	.
.	.	16B-	.	.	.	.	.	.
.	.	16A-JJ)	.	16g-XJk)	.	.	.	.
=5	=5	=5	=5	=5	=5	=5	=5	=5
(4D-	<	8A-	<	(16g-LL	<	(8dd-L	<	I\\
.	.	.	.	16f	.	.	.	.
.	.	4a-	[	16e-	.	8ff	.	.
.	.	.	.	16d-JJ)	.	.	.	.
8E-L	[ >	.	.	(8cL	[ >	8gg-	[ >	V43
8D-J)	]]	8a-	.	8d-J)	]]	8ffJ)	]]	I
=6	=6	=6	=6	=6	=6	=6	=6	=6
8AA-L	<	(4cc	<	(16a-LL	<	(8ee-L	<	V
.	.	.	.	16g-	.	.	.	.
8A-	.	.	.	16f	.	8gg-	.	V7
.	.	.	.	16e-JJ)	.	.	.	.
8A-	[ >	8bXL	[ >	(8dL	[ >	8aa-	[ >	#vio2
8A-J	]]	8ccJ)	]]	8e-J)	]]	8gg-J)	]]	V7
=7	=7	=7	=7	=7	=7	=7	=7	=7
8AA-L	<	4.dd-	<	(16b-LL	<	(8ffL	<	I64
.	.	.	.	16a-	.	.	.	.
8A-	.	.	.	16g-	.	8aa-	.	.
.	.	.	.	16fJJ)	.	.	.	.
8A-	[ >	.	.	(8eXL	[ >	8bb-	] > <	.
8A-J	]]	8dd-	[ > ]]	8fJ)	]]	8aa-J)	[[	.
=8	=8	=8	=8	=8	=8	=8	=8	=8
(4E-	.	(8b-L	.	[4dd-	.	(16aa-LL	[	V7/V
.	.	.	.	.	.	16gg	.	.
.	.	8g	.	.	.	16ff	.	.
.	.	.	.	.	.	16ee-JJ)	.	.
4A-)	.	8e-	.	16dd-LL]	.	(8.aa-L	.	V
.	.	.	.	16cc	.	.	.	.
.	.	8cJ)	.	16b-	.	.	.	.
.	.	.	.	16a-JJ	.	16gg-XJk)	.	V7
=9	=9	=9	=9	=9	=9	=9	=9	=9
4D-	.	(8a-L	.	[4cc-X	.	(16gg-LL	.	V7/IV
.	.	.	.	.	.	16ff	.	.
.	.	8f	.	.	.	16ee-	.	.
.	.	.	.	.	.	16dd-JJ)	.	.
[4G-	.	8d-	.	16cc-LL]	.	(8.gg-L	.	IV
.	.	.	.	16b-	.	.	.	.
.	.	8B-J)	.	16a-	.	.	.	.
.	.	.	.	16g-JJ	.	16ee-Jk)	.	ii6
=10	=10	=10	=10	=10	=10	=10	=10	=10
!LO:TX:a:t=cresc.	!	!	!	!	!	!	!	!
!LO:TX:b:t=cresc.	!	!LO:TX:a:t=cresc.	!	!	!	!LO:TX:b:t=cresc.	!	!
(8G-L]	.	(8a-L	.	(8e-	.	(16.dd-LL	.	V2(4)
.	.	.	.	.	.	32ccK	.	V2
8FJ	.	[8d-J)	.	4a-)	.	16.ee-	.	I6(2)
.	.	.	.	.	.	32dd-JJk)	.	I6
8E-L	.	(16.d-LL]	.	.	.	(16.ffLL	.	V64(64)
.	.	32cK	.	.	.	32ee-K	.	V64
8D-J)	.	16.e-	.	8a-	.	16.gg-	.	I(4+2)
.	.	32d-JJk)	.	.	.	32ffJJk)	.	I
=11	=11	=11	=11	=11	=11	=11	=11	=11
(8.G-L	.	(16.fLL	.	(16.a-LL	.	(16.aa-LL	.	ii6
.	.	32e-JJk)	.	32g-JJk)	.	32gg-JJk)	.	.
.	.	(4d-	.	(4f	.	(4ff	.	V(64)
16GJk	.	.	.	.	.	.	.	.
8A-L)	.	.	.	.	.	.	.	.
8AA-J	.	16.e-LL	.	16.g-LL	.	16.gg-LL	.	V7
.	.	32cJJk)	.	32e-JJk)	.	32ee-JJk)	.	.
=12	=12	=12	=12	=12	=12	=12	=12	=12
8D-L	p	8d-	p	8d-	p	8dd-	p	I\\
8d-J	.	8r	.	8r	.	8r	.	.
4r	.	4r	.	4r	.	(32ffLLL	.	.
.	.	.	.	.	.	32gg-	.	.
.	.	.	.	.	.	32aa-	.	.
.	.	.	.	.	.	32bb-	.	.
.	.	.	.	.	.	32ccc	.	.
.	.	.	.	.	.	32ddd-	.	.
.	.	.	.	.	.	32eee-	.	.
.	.	.	.	.	.	32fffJJJ)	.	.
=13	=13	=13	=13	=13	=13	=13	=13	=13
2r	.	(8ccL	.	(8ee-L	.	(16.aaa-LL	.	V6
.	.	.	.	.	.	32ggg-JK)	.	.
.	.	16dd-Jk)	.	16dd-Jk)	.	8fffJ	.	I
.	.	16r	.	16r	.	.	.	.
.	.	(8g-L	.	(8bb-L	.	(16.fffLL	.	ii6
.	.	.	.	.	.	32eee-JK)	.	.
.	.	16gJk)	.	16bb-Jk)	.	8ddd-J	.	#viio/V
.	.	16r	.	16r	.	.	.	.
=14	=14	=14	=14	=14	=14	=14	=14	=14
.	.	.	.	.	.	8qddd-/	.	V\\
4r	.	8a-	.	8ee-	.	(32cccLLL	.	.
.	.	.	.	.	.	32bb-	.	.
.	.	.	.	.	.	32ccc	.	.
.	.	.	.	.	.	32ddd-JJ)	.	.
.	.	8r	.	8r	.	8eee-J	.	.
(32D-LLL	p	(32FLLL	p	4r	.	4r	.	I
32E-	.	32G-	.	.	.	.	.	.
32F	.	32A-	.	.	.	.	.	.
32G-	.	32B-	.	.	.	.	.	.
32A-	.	32c	.	.	.	.	.	.
32B-	.	32d-	.	.	.	.	.	.
32c	.	32e-	.	.	.	.	.	.
32d-JJJ)	.	32fJJJ)	.	.	.	.	.	.
=15	=15	=15	=15	=15	=15	=15	=15	=15
(8cL	.	(16.a-LL	.	4r	.	2r	.	vi
.	.	32g-JK)	.	.	.	.	.	.
16d-Jk)	.	8fJ	.	.	.	.	.	.
16r	.	.	.	.	.	.	.	.
(8AXL	.	(8ccL	.	(16.ffLL	.	.	.	.
.	.	.	.	32ee-JK)	.	.	.	.
16B-Jk)	.	16fJk)	.	8dd-J	.	.	.	.
16r	.	16r	.	.	.	.	.	.
=16	=16	=16	=16	=16	=16	=16	=16	=16
!	!	!	!	!LO:TX:b:t=cresc.	!	!	!	!
!LO:TX:b:t=cresc.	!	!	!	!LO:TX:b:t=cresc.	!	!LO:TX:b:t=cresc.	!	!
(8GL	.	(8b-L	.	(16.ee-LL	.	(16.eee-LL	.	V.V6
.	.	.	.	32dd-K	.	32ddd-K	.	.
8A-	.	8e-)	.	16.cc	.	16.ccc	.	I
.	.	.	.	32dd-JJk	.	32ddd-JJk	.	.
8D-	.	8f	.	16.b-LL	.	16.bb-LL	.	ii6
.	.	.	.	32ccK	.	32cccK	.	.
8DJ)	.	8fJ	.	16.a-	.	16.aa-	.	#viio/V
.	.	.	.	32b-JJk)	.	32bb-JJk)	.	.
=17	=17	=17	=17	=17	=17	=17	=17	=17
8E-	p	16B-'LL	p	16gKL	p	8gg	p	V\\
.	.	16E-'	.	8e-	.	.	.	.
8r	.	16G'	.	.	.	8r	.	V
.	.	16E-'JJ	.	16e-Jk	.	.	.	.
4r	.	16A-'LL	.	(32dLLL	.	4r	.	V(64)
.	.	.	.	32e-	.	.	.	.
.	.	16E-'	.	32f	.	.	.	.
.	.	.	.	32g	.	.	.	.
.	.	16A-'	.	32a-	.	.	.	.
.	.	.	.	32f	.	.	.	.
.	.	16E-'JJ	.	32e-	.	.	.	.
.	.	.	.	32dJJJ)	.	.	.	.
=18	=18	=18	=18	=18	=18	=18	=18	=18
16EE-'LL	.	(16GLL	.	(16.b-LL	.	[8bb-L	.	V
16E-'	.	16B-	.	.	.	.	.	.
.	.	.	.	32gJK)	.	.	.	.
16G'	.	16e-	.	8e-'J	.	32bb-LL]	.	.
.	.	.	.	.	.	(32ggg	.	.
16E-'JJ	.	16gJJ)	.	.	.	32fff	.	.
.	.	.	.	.	.	32eee-JJJ)	.	.
16A-'LL	.	16b-'LL	.	4r	.	(32eee-LLL	.	V(64)
.	.	.	.	.	.	32ddd)	.	.
16E-'	.	16b-'	.	.	.	(32ddd	.	.
.	.	.	.	.	.	32aaa-JJJ)	.	.
16A-'	.	16b-'	.	.	.	(32aaa-LLL	.	.
.	.	.	.	.	.	32fff)	.	.
16E-'JJ	.	16b-'JJ	.	.	.	(32fff	.	.
.	.	.	.	.	.	32dddJJJ)	.	.
=19	=19	=19	=19	=19	=19	=19	=19	=19
.	.	.	.	.	.	8qfff/	.	V
8E-	.	16g'LL	.	[8ee-L	.	(32eee-LLL	.	.
.	.	.	.	.	.	32ddd	.	.
.	.	16e-'	.	.	.	32eee-	.	.
.	.	.	.	.	.	32fffJJ)	.	.
8r	.	16g'	.	(32ee-LL]	.	8ggg-'J	.	.
.	.	.	.	32gg	.	.	.	.
.	.	16e-'JJ	.	32ff	.	.	.	.
.	.	.	.	32ee-JJJ)	.	.	.	.
4r	.	16a-'LL	.	(32ddLLL	.	4r	.	V(64)
.	.	.	.	32ee-	.	.	.	.
.	.	16e-'	.	32ff	.	.	.	.
.	.	.	.	32gg	.	.	.	.
.	.	16a-'	.	32aa-	.	.	.	.
.	.	.	.	32ff	.	.	.	.
.	.	16e-'JJ	.	32ee-	.	.	.	.
.	.	.	.	32ddJJJ)	.	.	.	.
=20	=20	=20	=20	=20	=20	=20	=20	=20
16EE-'LL	.	(16GLL	.	(16.bb-LL	.	[8bbb-L	.	V
16E-'	.	16B-	.	.	.	.	.	.
.	.	.	.	32ggJK)	.	.	.	.
16G'	.	16e-	.	8ee-'	.	(32bbb-LL]	.	.
.	.	.	.	.	.	32ggg	.	.
16E-'JJ	.	16gJJ)	.	.	.	32fff	.	.
.	.	.	.	.	.	32eee-JJJ)	.	.
16A-'LL	.	16b-'LL	.	16r	.	(32eee-LLL	.	V(64)
.	.	.	.	.	.	32ddd)	.	.
16E-'	.	16b-'	.	16a-'L	.	(32ddd	.	.
.	.	.	.	.	.	32aaa-JJJ)	.	.
16A-'	.	16b-'	.	16a-'	.	(32aaa-LLL	.	.
.	.	.	.	.	.	32fff)	.	.
16E-'JJ	.	16b-'JJ	.	16a-'JJ	.	(32fff	.	.
.	.	.	.	.	.	32dddJJJ)	.	.
=21	=21	=21	=21	=21	=21	=21	=21	=21
!LO:TX:a:t=decresc	!	!	!	!	!	!	!	!
!LO:TX:a:t=decresc	!	!	!	!LO:TX:a:t=decresc	!	!	!	!
8E-	.	16b-'LL	.	16g'LL	.	16eee-LL	.	V\\
.	.	16G-'	.	16e-'	.	16r	.	.
8r	.	16B-'	.	16g'	.	16r	.	.
.	.	16r	.	16r	.	(32ddd-L	.	.
.	.	.	.	.	.	32fffJJJ)	.	.
4r	.	16r	.	16r	.	8eee-L	.	.
.	.	16e-'	.	16g'	.	.	.	.
.	.	16g'JJ	.	16b-'JJ	.	16r	.	.
.	.	16r	.	16r	.	(32ddd-LL	.	.
.	.	.	.	.	.	32fffJJJ)	.	.
=22	=22	=22	=22	=22	=22	=22	=22	=22
2r	.	16r	.	16r	.	8eee-'L	.	V65
.	.	16g'LL	.	16b-'LL	.	.	.	.
.	.	16b-'JJ	.	16dd-'JJ	.	16r	.	.
.	.	16r	.	16r	.	16ddd'Jk	.	.
.	.	4r	.	4r	.	16eee-'LL	.	.
.	.	.	.	.	.	16ddd'	.	.
.	.	.	.	.	.	16eee-'	.	.
.	.	.	.	.	.	16ddd'JJ	.	.
=23	=23	=23	=23	=23	=23	=23	=23	=23
2r	.	2r	.	4r	.	16ddd-LL	pp	.
.	.	.	.	.	.	16r	.	.
.	.	.	.	.	.	16bb-JJ	.	.
.	.	.	.	.	.	16r	.	.
.	.	.	.	16dd-LL	pp	16gg	.	.
.	.	.	.	16r	.	16r	.	.
.	.	.	.	16b-JJ	.	8r	.	.
.	.	.	.	16r	.	.	.	.
=24	=24	=24	=24	=24	=24	=24	=24	=24
2r	.	2r	.	16g	.	16eee-LL	.	.
.	.	.	.	16r	.	16r	.	.
.	.	.	.	8r	.	16cccJJ	.	.
.	.	.	.	.	.	16r	.	.
.	.	.	.	16ccLL	.	16aa-	.	I
.	.	.	.	16r	.	16r	.	.
.	.	.	.	16a-JJ	.	8r	.	.
.	.	.	.	16r	.	.	.	.
=25	=25	=25	=25	=25	=25	=25	=25	=25
2r	.	16d-LL	pp	16e-'LL	.	16gg'LL	.	V2
.	.	16r	.	16ee-'	.	16aa-'	.	.
.	.	16B-	.	16ee-'	.	16bb-'	.	V43
.	.	16r	.	16ee-'JJ	.	16ccc'JJ	.	.
.	.	16G	.	(8.ee-TL	.	8ddd-'L	.	V65
.	.	16r	.	.	.	.	.	.
.	.	16r	.	.	.	16r	.	.
.	.	16d-JJ	.	32ddLL	.	16gg'Jk	.	V2
.	.	.	.	32ee-JJJ)	.	.	.	.
=26	=26	=26	=26	=26	=26	=26	=26	=26
4r	.	16cLL	.	16e-'LL	.	16aa-'LL	.	I6
.	.	16r	.	16ee-'	.	16bb-'	.	.
.	.	16A-	.	16ee-'	.	16ccc'	.	I
.	.	16r	.	16ee-'JJ	.	16ddd-'JJ	.	.
8r	.	16E-	.	(8.ee-TL	.	8eee-'L	.	I64
.	.	16r	.	.	.	.	.	.
16r	.	16r	.	.	.	16r	.	.
16C	pp	16E-JJ	.	32ddLL	.	16aa-Jk	.	I6
.	.	.	.	32ee-JJJ)	.	.	.	.
=27	=27	=27	=27	=27	=27	=27	=27	=27
16D-LL	.	16E-'LL	.	16r	.	16r	.	V2
16r	.	16e-'	.	16gLL	.	16ggLL	.	.
16BB-	.	16e-'	.	16r	.	16r	.	V43
16r	.	16e-'JJ	.	16b-	.	16bb-	.	.
16GG	.	(8.e-TL	.	16r	.	16r	.	V65
16r	.	.	.	16dd-	.	16ddd-	.	.
16r	.	.	.	16r	.	16r	.	.
16D-JJ	.	32dLL	.	16gJJ	.	16ggJJ	.	V2
.	.	32e-JJJ)	.	.	.	.	.	.
=28	=28	=28	=28	=28	=28	=28	=28	=28
16CLL	.	16E-'LL	.	16r	.	16r	.	I6
16r	.	16e-'	.	16a-LL	.	16aa-LL	.	.
16AA-	.	16e-'	.	16r	.	16r	.	I
16r	.	16e-'JJ	.	16cc	.	16ccc	.	.
16EE-	.	(8.e-TL	.	16r	.	16r	.	I64
16r	.	.	.	16ee-	.	16eee-	.	.
16CJJ	.	.	.	16r	.	16r	.	I6
16r	.	32dLL	.	16a-JJ	.	16aa-JJ	.	.
.	.	32e-JJJ)	.	.	.	.	.	.
=29	=29	=29	=29	=29	=29	=29	=29	=29
!LO:TX:b:t=cresc.	!	!	!	!	!	!	!	!
!LO:TX:a:t=cresc.	!	!	!	!	!	!	!	!
16D-LL	.	16E-LL	.	16r	.	16r	.	V2
!	!	!	!	!LO:TX:b:t=cresc.	!	!LO:TX:b:t=cresc.	!	!
16r	.	16E- 16e-	.	16gLL	.	16ggLL	.	.
16BB-	.	16E- 16e-	.	16r	.	16r	.	V64
16r	.	16E-JJ 16e-	.	16b-	.	16bb-	.	.
16GG	.	16E-LL 16e-	.	16r	.	16r	.	V6
16r	.	16E- 16e-	.	16dd-	.	16ddd-	.	.
16EE-JJ	.	16E- 16e-	.	16r	.	16r	.	V
16r	.	16E-JJ 16e-	.	16ggJJ	.	16gggJJ	.	.
=30	=30	=30	=30	=30	=30	=30	=30	=30
4FF-X	f	4F-X 4f-X	f	4aa-	f	4aaa-	f	v.VI
(4F-X	.	(4f-	.	(4f-X	.	(4f-X	.	.
=31	=31	=31	=31	=31	=31	=31	=31	=31
4D-	.	4d-	.	4d-	.	4d-	.	iv
4BB-)	.	4B-)	.	4B-)	.	4B-)	.	V65/III
=32	=32	=32	=32	=32	=32	=32	=32	=32
!	!	!	!LO:DY:a	!	!	!	!	!
(4BB-	sf	[4G-	sf sf	(4d-	.	(8.g-L	sf	.
.	.	.	.	.	.	16f-XJk	.	.
8C-X)	.	8G-L]	.	8e-)	.	8e-L)	.	III
(8C	sf	[8A-J	sf	(8e-	sf	(16.a-L	sf	V65/iv
.	.	.	.	.	.	32g-JJk)	.	.
=33	=33	=33	=33	=33	=33	=33	=33	=33
8D-)	.	8A-]	.	8f-X)	.	8f-X	.	iv
4D-	ff >	4f-X	ff >	(4d-	ff >	(4b--X	ff >	.bII6
8D-	]]	8f-	]]	8c-X	]]	8a-	]]	iv7
=34	=34	=34	=34	=34	=34	=34	=34	=34
!	!	!	!LO:DY:a	!	!	!	!	!
8D-L	p	8f-XL	p p	8B-L)	.	8gL)	p p	#viio43
8r	.	8r	.	8b-J	<	8r	.	.
8r	.	8r	.	8cc-XL	>	8r	.	.
16.d-L	pp	16.gL	pp	8b-J	] pp ]]	16.ff-XL	pp	.
32d-JJk	.	32gJJk	.	.	.	32ff-JJk	.	.
=35	=35	=35	=35	=35	=35	=35	=35	=35
8d-L	.	8gL	.	(8gL	<	4ff-X	.	.
8r	.	8r	.	8b-J	>	.	.	.
8r	.	8r	.	8cc-XL)	]	16r	.	.
.	.	.	.	.	.	16r	.	.
!	!	!	!	!LO:TX:b:t=cresc.	!	!	!	!
!LO:TX:b:t=cresc.	!	!	!	!LO:TX:b:t=cresc.	!	!LO:TX:b:t=cresc.	!	!
16.d-L	.	16.f-XL	.	16.b-L	]	16.ggLL	.	.
32d-JJk	.	32f-JJk	.	32b-JJk	.	32ggJJk	.	.
=36	=36	=36	=36	=36	=36	=36	=36	=36
(4d	ff	(4f	ff	(4cc-X	ff	[4aa-	ff	#viio7/V
8e-L	>	8e-L	>	8ccL	>	(16aa-LL]	>	V.V(64)
.	.	.	.	.	.	32ggL	.	.
.	.	.	.	.	.	32ff	.	.
8E-J)	]]	8d-J)	]]	8gJ)	]]	32ee-	.	V7
.	.	.	.	.	.	32dd-	.	.
.	.	.	.	.	.	32cc	.	.
.	.	.	.	.	.	32b-JJJ)	]]	.
=37	=37	=37	=37	=37	=37	=37	=37	=37
16A-LL	p	(8.cL	p	(8a-L	p <	8a-L	.	I\\
16AA-	.	.	.	.	.	.	.	.
16AA-	.	.	.	8cc	.	8r	.	I[I64
16AA-JJ	.	32B-LL	.	.	.	.	.	.
.	.	32A-JJJ	.	.	.	.	.	.
!	!	!	!	!	!LO:DY:a	!	!	!
16AA-LL	.	8GL	.	8dd-	[ p >	16r	.	V65
16AA-	.	.	.	.	.	(8eee-	.	.
16AA-	.	8A-J)	.	8ccJ)	]]	.	.	.
16AA-JJ	.	.	.	.	.	16aa-Jk)	.	I
=38	=38	=38	=38	=38	=38	=38	=38	=38
16AA-LL	.	(8.d-L	.	(8b-L	<	8ggL	.	viio64
16AA-	.	.	.	.	.	.	.	.
16AA-	.	.	.	8dd-	.	8r	.	.
16AA-JJ	.	32cLL	.	.	.	.	.	.
.	.	32B-JJJ	.	.	.	.	.	.
16AA-LL	.	8AXL	.	8ee-	[ >	16r	.	#viio/ii
16AA-	.	.	.	.	.	(8eee-	.	.
16AA-	.	8B-J)	.	8dd-J)	]]	.	.	.
16AA-JJ	.	.	.	.	.	16ggJk)	.	viio6
=39	=39	=39	=39	=39	=39	=39	=39	=39
!LO:TX:b:t=cresc.	!	!LO:TX:b:t=cresc.	!	!LO:TX:b:t=cresc.	!	!LO:TX:b:t=cresc.	!	!
16AA-KL	.	16cKL	.	16ccKL	.	16aa-LL	.	I6]
(8A-	.	(8c	.	(8cc	.	16aaa-	.	I
.	.	.	.	.	.	16aaa-	.	.
32B-LL	.	32d-LL	.	32dd-LL	.	16aaa-JJ	.	.
32cJJJ)	.	32e-JJJ)	.	32ee-JJJ)	.	.	.	.
16d-'LL	.	16f'LL	.	16ff'LL	.	16aaa-'LL	.	IV
16e-'	.	16g'	.	16gg'	.	16aaa-'	.	.
16f'	.	16a-'	.	16aa-'	.	16aaa-'	.	.
16g'JJ	.	16b-'JJ	.	16bb-'JJ	.	16aaa-'JJ	.	.
=40	=40	=40	=40	=40	=40	=40	=40	=40
16a-LL	p p	16ccLL	p	8ccc	p p	(16aaa-LL	p p	I
16a-	.	16cc	.	.	.	32gggL	.	.
.	.	.	.	.	.	32fff	.	.
16d-	.	16b-	.	8r	.	32eee-	.	ii6
.	.	.	.	.	.	32ddd-	.	.
16d-JJ	.	16b-JJ	.	.	.	32ccc	.	.
.	.	.	.	.	.	32bb-JJJ)	.	.
(16e-LL	.	16a-LL	.	16ccLL	.	(8aa-TL	.	V(64)
16d	.	16a-	.	16cc	.	.	.	.
.	.	.	.	.	.	16qqgg/LL	.	V7
.	.	.	.	.	.	16qqaa-/JJ	.	.
16e-	.	16g	.	16dd-	.	16cccL	.	.
16E-JJ)	.	16gJJ	.	16dd-JJ	.	16bb-JJ)	.	.
=41	=41	=41	=41	=41	=41	=41	=41	=41
16AA-LL	.	(8.e-L	.	(8.ccL	.	(8aa-L	.	I\\
16A-	.	.	.	.	.	.	.	.
16A-	.	.	.	.	.	8ccc	.	I[I64
16A-JJ	.	32d-LL	.	32b-LL	.	.	.	.
.	.	32cJJJ	.	32a-JJJ	.	.	.	.
16A-LL	.	8B-L	.	8gL	.	8ddd-	.	viio6
16A-	.	.	.	.	.	.	.	.
16A-	.	8cJ)	.	8a-J)	.	8cccJ)	.	I
16A-JJ	.	.	.	.	.	.	.	.
=42	=42	=42	=42	=42	=42	=42	=42	=42
16AA-LL	.	(8.f-XL	.	(8.dd-L	.	(8bb-L	.	iio64
16A-	.	.	.	.	.	.	.	.
16A-	.	.	.	.	.	8ddd-	.	.
16A-JJ	.	32e-LL	.	32ccLL	.	.	.	.
.	.	32d-JJJ	.	32b-JJJ	.	.	.	.
16A-LL	.	8cL	.	8aXL	.	8eee-	.	#viio6/ii
16A-	.	.	.	.	.	.	.	.
16A-	.	8d-J)	.	8b-J)	.	[8ddd-J)	.	ii6
16A-JJ	.	.	.	.	.	.	.	.
=43	=43	=43	=43	=43	=43	=43	=43	=43
!LO:TX:a:t=cresc.	!	!	!	!	!	!	!	!
!LO:TX:b:t=cresc.	!	!LO:TX:b:t=cresc.	!	!	!	!LO:TX:b:t=cresc.	!	!
16AA-LL	.	(8.g-L	.	(8.ee-L	.	(16.ddd-LL]	.	viio64/IV
16A-	.	.	.	.	.	.	.	.
.	.	.	.	.	.	32cccJK)	.	.
16A-	.	.	.	.	.	[8eee-J	.	.
16A-JJ	.	32fLL	.	32dd-LL	.	.	.	.
.	.	32e-JJJ)	.	32ccJJJ)	.	.	.	.
16AA-LL	.	(8.a-L	.	(8.ffL	.	(16.eee-LL]	.	IV64
16A-	.	.	.	.	.	.	.	.
.	.	.	.	.	.	32ddd-JK)	.	.
16A-	.	.	.	.	.	[8fffJ	.	.
16A-JJ	.	32g-LL	.	32ee-LL	.	.	.	.
.	.	32fJJJ)	.	32dd-JJJ)	.	.	.	.
=44	=44	=44	=44	=44	=44	=44	=44	=44
16AA-LL	sf	[8b-L	sf	[8gg-L	sf	16.fffLL]	sf	v64]
16A-	.	.	.	.	.	.	.	.
.	.	.	.	.	.	32eee-JK	.	.
16A-	.	(16b-L]	.	(16gg-L]	.	[8ggg-J	sf sf	.
16A-JJ	.	32a-L	.	32ffL	.	.	.	.
.	.	32g-JJJ)	.	32ee-JJJ)	.	.	.	.
16AA-LL	f	(8fL	f	(8dd-L	f	(8.ggg-L]	f	I(64+2)
16A-	.	.	.	.	.	.	.	.
16AA-	.	8e-J)	.	8ccJ)	.	.	.	.
16A-JJ	.	.	.	.	.	32fffLL	.	I
.	.	.	.	.	.	32eee-JJJ)	.	.
=45	=45	=45	=45	=45	=45	=45	=45	=45
2r	.	2r	.	2r	.	(32ddd-LLL	.	I.V7
.	.	.	.	.	.	32ccc	.	.
.	.	.	.	.	.	32bb-	.	.
.	.	.	.	.	.	32aa-	.	.
.	.	.	.	.	.	32gg-	.	.
.	.	.	.	.	.	32ff	.	.
.	.	.	.	.	.	32ee-	.	.
.	.	.	.	.	.	32dd-JJJ)	.	.
!	!	!	!	!	!	!LO:TX:b:t=decresc.	!	!
.	.	.	.	.	.	16cc'LL	.	.
.	.	.	.	.	.	16b-'	.	.
.	.	.	.	.	.	16a-'	.	.
.	.	.	.	.	.	16g'JJ	.	.
=46	=46	=46	=46	=46	=46	=46	=46	=46
2r	.	2r	.	2r	.	(8g-'L	.	.
.	.	.	.	.	.	8f'	.	.
.	.	.	.	.	.	8eX'	.	.
.	.	.	.	.	.	8e-'J)	.	.
=47	=47	=47	=47	=47	=47	=47	=47	=47
(4D-	p <	4A-	p <	(4d-	p <	(8d-L	p <	I
.	.	.	.	.	.	8f	.	.
8CL	[ >	8A-'L	[ >	8e-L	[ >	8g-	[ >	V65
8D-J)	]]	8A-'J	]]	8d-J)	]]	8fJ)	]]	I
=48	=48	=48	=48	=48	=48	=48	=48	=48
(8.AA-L	<	4A-	<	(4c	<	(8e-L	<	V
.	.	.	.	.	.	8g-	.	V7
16E-Jk	[	.	.	.	.	.	.	.
8DL	>	(8A-'L	[ >	8BXL	[ >	8a-	[ >	#vio65
8E-J)	]]	8A-'J)	]]	8cJ)	]]	8g-J)	]]	V7
=49	=49	=49	=49	=49	=49	=49	=49	=49
(8.AA-L	<	(4A-	<	4d-	<	(8fL	<	I64
.	.	.	.	.	.	8a-	.	.
16FJk	.	.	.	.	.	.	.	.
8EXL	[ >	8GL	[ >	(8d-'L	[ >	8b-	[ >	#iio7
8FJ)	]]	8A-J)	]]	8d-'J)	]]	8a-J)	]]	I6
=50	=50	=50	=50	=50	=50	=50	=50	=50
(4E-	.	(8B-L	.	8d-	.	(16a-LL	.	V7/V
.	.	.	.	.	.	16g	.	.
.	.	[8d-J)	.	8r	.	16f	.	.
.	.	.	.	.	.	16e-JJ)	.	.
(4AA-)	.	(16d-LL]	.	(8.a-L	.	8a-	.	V\\
.	.	16c	.	.	.	.	.	.
.	.	16B-	.	.	.	8r	.	.
.	.	16A-JJ)	.	16g-Jk)	.	.	.	.
=51	=51	=51	=51	=51	=51	=51	=51	=51
8D-L)	<	8A-	<	(16g-LL	<	(8dd-L	<	I
.	.	.	.	16f	.	.	.	.
(8D-	.	4a-	[ >	16e-	.	8ff	.	.
.	.	.	.	16d-JJ)	.	.	.	.
8E-	[ >	.	.	(8cL	[ >	8gg-	[ >	V43
8D-J)	]]	8a-	]]	8d-J)	]]	8ffJ)	]]	I
=52	=52	=52	=52	=52	=52	=52	=52	=52
8AA-L	<	(4cc	<	(16a-LL	<	(8ee-L	<	V
.	.	.	.	16g-	.	.	.	.
8A-	.	.	.	16f	.	8gg-	.	V7
.	.	.	.	16e-JJ)	.	.	.	.
8A-	[ >	8bXL	[ >	(8dL	[ >	8aa-	[ >	#vio2
8A-J	]]	8ccJ)	]]	8e-J)	]]	8gg-J)	]]	V7
=53	=53	=53	=53	=53	=53	=53	=53	=53
8AA-L	<	(4.dd-	<	(16b-LL	<	(8ffL	<	I64
.	.	.	.	16a-	.	.	.	.
8A-	.	.	.	16g-	.	8aa-	.	.
.	.	.	.	16fJJ)	.	.	.	.
8A-	[ >	.	.	(8eXL	[ >	8bb-	[ >	.
8A-J	]]	8dd-)	[ > ]]	8fJ)	]]	8aa-J)	]]	.
=54	=54	=54	=54	=54	=54	=54	=54	=54
(4E-	.	(8b-L	.	[4dd-	.	(16aa-LL	.	V7/V
.	.	.	.	.	.	16gg	.	.
.	.	8g	.	.	.	16ff	.	.
.	.	.	.	.	.	16ee-JJ)	.	.
4A-)	.	8e-	.	(16dd-LL]	.	(8.aa-L	.	V
.	.	.	.	16cc	.	.	.	.
.	.	8cJ)	.	16b-	.	.	.	.
.	.	.	.	16a-JJ)	.	16gg-XJk)	.	V7
=55	=55	=55	=55	=55	=55	=55	=55	=55
(4D-	.	(8a-L	.	[4cc-X	.	(16gg-LL	.	V7/IV
.	.	.	.	.	.	16ff	.	.
.	.	8f	.	.	.	16ee-	.	.
.	.	.	.	.	.	16dd-JJ)	.	.
4G-)	.	8d-	.	(16cc-LL]	.	(8.gg-L	.	IV
.	.	.	.	16b-	.	.	.	.
.	.	8B-J)	.	16a-	.	.	.	.
.	.	.	.	16g-JJ)	.	16ee-Jk)	.	ii6
=56	=56	=56	=56	=56	=56	=56	=56	=56
!LO:TX:b:t=cresc.	!	!	!	!	!	!	!	!
!LO:TX:a:t=cresc.	!	!LO:TX:a:t=cresc.	!	!	!	!LO:TX:b:t=cresc.	!	!
(8G-L	.	(8a-L	.	(8e-	.	(16.dd-LL	.	V2(4)
.	.	.	.	.	.	32ccK	.	V2
8F	.	[8d-J)	.	4a-)	.	16.ee-	.	I6(+2)
.	.	.	.	.	.	32dd-JJk)	.	I6
8E-	.	(16.d-LL]	.	.	.	(16.ffLL	.	V64(64)
.	.	32cK	.	.	.	32ee-K	.	V64
8D-J)	.	16.e-	.	8a-	.	16.gg-	.	I(4+2)
.	.	32d-JJk)	.	.	.	32ffJJk)	.	I
=57	=57	=57	=57	=57	=57	=57	=57	=57
(8.G-L	.	(16.fLL	.	(16.a-LL	.	(16.aa-LL	.	ii6
.	.	32e-JJk)	.	32g-JJk)	.	32gg-JJk)	.	.
.	.	4d-	.	4f	.	4ff	.	V(64)
16GJk	.	.	.	.	.	.	.	.
8A-L)	.	.	.	.	.	.	.	.
8AA-J	.	(16.e-LL	.	(16.g-LL	.	(16.gg-LL	.	V7
.	.	32cJJk)	.	32e-JJk)	.	32ee-JJk)	.	.
=58	=58	=58	=58	=58	=58	=58	=58	=58
8D-L	p	8d-	p	8d-	p	8dd-	p	I\\
8d-J	.	8r	.	8r	.	8r	.	.
4r	.	4r	.	4r	.	(32ffLLL	.	.
.	.	.	.	.	.	32gg-	.	.
.	.	.	.	.	.	32aa-	.	.
.	.	.	.	.	.	32bb-	.	.
.	.	.	.	.	.	32ccc	.	.
.	.	.	.	.	.	32ddd-	.	.
.	.	.	.	.	.	32eee-	.	.
.	.	.	.	.	.	32fffJJJ)	.	.
=59	=59	=59	=59	=59	=59	=59	=59	=59
2r	.	(8ccL	.	(8ee-L	.	(16.aaa-LL	.	V6
.	.	.	.	.	.	32ggg-JK)	.	.
.	.	16dd-Jk)	.	16dd-Jk)	.	8fffJ	.	I
.	.	16r	.	16r	.	.	.	.
.	.	(8g-L	.	(8bb-L	.	(16.fffLL	.	ii6
.	.	.	.	.	.	32eee-JK)	.	.
.	.	16gJk)	.	16bb-Jk)	.	8ddd-J	.	#viio/V
.	.	16r	.	16r	.	.	.	.
=60	=60	=60	=60	=60	=60	=60	=60	=60
.	.	.	.	.	.	8qddd-/	.	V\\
4r	.	8a-	.	8ee-	.	(32cccLLL	.	.
.	.	.	.	.	.	32bb-	.	.
.	.	.	.	.	.	32ccc	.	.
.	.	.	.	.	.	32ddd-JJ)	.	.
.	.	8r	.	8r	.	8eee-'J	.	.
(32D-LLL	.	(32FLLL	.	4r	.	4r	.	I
32E-	.	32G-	.	.	.	.	.	.
32F	.	32A-	.	.	.	.	.	.
32G-	.	32B-	.	.	.	.	.	.
32A-	.	32c	.	.	.	.	.	.
32B-	.	32d-	.	.	.	.	.	.
32c	.	32e-	.	.	.	.	.	.
32d-JJJ)	.	32fJJJ)	.	.	.	.	.	.
=61	=61	=61	=61	=61	=61	=61	=61	=61
(8cL	.	(16.a-LL	.	2r	.	2r	.	#viio/V
.	.	32g-JK)	.	.	.	.	.	.
16d-Jk)	.	8f'J	.	.	.	.	.	.
16r	.	.	.	.	.	.	.	.
(8G-L	.	(16.fLL	.	.	.	.	.	.
.	.	32e-JK)	.	.	.	.	.	.
16GJk)	.	8d-'J	.	.	.	.	.	.
16r	.	.	.	.	.	.	.	.
=62	=62	=62	=62	=62	=62	=62	=62	=62
.	.	8qd-/	.	.	.	.	.	.
8A-L	.	(32cLLL	.	4r	.	2r	.	V\\
.	.	32B-	.	.	.	.	.	.
.	.	32c	.	.	.	.	.	.
.	.	32d-JJ)	.	.	.	.	.	.
8AA-J	.	8e-'J	.	.	.	.	.	.
4r	.	4r	.	(32fLLL	pp	.	.	.
.	.	.	.	32g-	.	.	.	.
.	.	.	.	32a-	.	.	.	.
.	.	.	.	32b-	.	.	.	.
.	.	.	.	32cc	.	.	.	.
.	.	.	.	32dd-	.	.	.	.
.	.	.	.	32ee-	.	.	.	.
.	.	.	.	32eeXJJJ)	.	.	.	.
=63	=63	=63	=63	=63	=63	=63	=63	=63
16D-LL	pp	(4A-	pp	(4ff	.	(4ccc-X	pp	V7/IV
16D-	.	.	.	.	.	.	.	.
16D-	.	.	.	.	.	.	.	.
16D-JJ	.	.	.	.	.	.	.	.
16D-LL	.	4a-)	.	4cc-X)	.	4ff)	.	.
16D-	.	.	.	.	.	.	.	.
16D-	.	.	.	.	.	.	.	.
16D-JJ	.	.	.	.	.	.	.	.
=64	=64	=64	=64	=64	=64	=64	=64	=64
!LO:TX:b:t=cresc.	!	!LO:TX:b:t=cresc.	!	!LO:TX:b:t=cresc.	!	!LO:TX:b:t=cresc.	!	!
16E--XLL	.	[2g-	.	(4b--X	.	[4gg-	.	iv.VI
16E--	.	.	.	.	.	.	.	.
16E--	.	.	.	.	.	.	.	.
16E--JJ	.	.	.	.	.	.	.	.
16C-XLL	.	.	.	4a-)	.	(16gg-LL]	.	ii%65
16C-	.	.	.	.	.	32ff-XL	.	.
.	.	.	.	.	.	32ee--X	.	.
16C-	.	.	.	.	.	32dd-	.	.
.	.	.	.	.	.	32cc-X	.	.
16C-JJ	.	.	.	.	.	32b--X	.	.
.	.	.	.	.	.	32a-JJJ)	.	.
=65	=65	=65	=65	=65	=65	=65	=65	=65
16D-LL	.	16g-KL]	.	16b--XKL	.	(16.dd-LL	.	V(64)
16D-	.	8B--X	.	8d-	.	.	.	.
.	.	.	.	.	.	32b--XK)	.	.
16D-	.	.	.	.	.	16g-'	.	.
16D-JJ	.	16B--Jk	.	[16d-Jk	.	16g-'JJ	.	.
16D-LL	.	16A-KL	.	16d-KL]	.	(16.cc-XLL	.	V7
16D-	.	8c-X	.	8d-	.	.	.	.
.	.	.	.	.	.	32a-K)	.	.
16D-	.	.	.	.	.	16f'	.	.
16D-JJ	.	16c-Jk	.	16d-Jk	.	16f'JJ	.	.
=66	=66	=66	=66	=66	=66	=66	=66	=66
16G-LL	p	(8B--XL	p	8d-	p	8g-L	p	i\\
16G-	.	.	.	.	.	.	.	.
16F-X	.	8A-J	.	8r	.	8r	.	.bIII.I
16F-JJ	.	.	.	.	.	.	.	.
16E-LL	.	8G-L	.	4r	.	32r	.	V6
.	.	.	.	.	.	(32b--XLL	.	.
16E-	.	.	.	.	.	32cc-X	.	.
.	.	.	.	.	.	32dd-	.	.
16D-	.	8F-XJ)	.	.	.	32ee-	.	vi
.	.	.	.	.	.	32ff-X	.	.
16D-JJ	.	.	.	.	.	32gg-	.	.
.	.	.	.	.	.	32aa-JJJ)	.	.
=67	=67	=67	=67	=67	=67	=67	=67	=67
!LO:TX:b:t=cresc.	!	!LO:TX:b:t=cresc.	!	!LO:TX:b:t=cresc.	!	!LO:TX:b:t=cresc.	!	!
16C-XLL	.	(4E-	.	(4gg-	.	(4bb--X	.	V7
16C-	.	.	.	.	.	.	.	.
16C-	.	.	.	.	.	.	.	.
16C-JJ	.	.	.	.	.	.	.	.
16CLL	.	4g-)	.	4b--X)	.	4eee-)	.	#viio7/vi
16C	.	.	.	.	.	.	.	.
16C	.	.	.	.	.	.	.	.
16CJJ	.	.	.	.	.	.	.	.
=68	=68	=68	=68	=68	=68	=68	=68	=68
16D-LL	.	[2f-X	.	(4a-	.	[4fff-X	.	vi
16D-	.	.	.	.	.	.	.	.
16D-	.	.	.	.	.	.	.	.
16D-JJ	.	.	.	.	.	.	.	.
16BB--XLL	.	.	.	4g-)	.	(16fff-LL]	.	ii65
16BB--	.	.	.	.	.	32eee-L	.	.
.	.	.	.	.	.	32ddd-	.	.
16BB--	.	.	.	.	.	32ccc-X	.	.
.	.	.	.	.	.	32bb--X	.	.
16BB--JJ	.	.	.	.	.	32aa-	.	.
.	.	.	.	.	.	32ffJJJ)	.	.
=69	=69	=69	=69	=69	=69	=69	=69	=69
16C-XLL	.	16f-KL]	.	16a-KL	.	(16.ccc-XLL	.	V(64)
16C-	.	8f-X	.	8a-	.	.	.	.
.	.	.	.	.	.	32aa-K)	.	.
16C-	.	.	.	.	.	16ff-X'	.	.
16C-JJ	.	(16f-Jk	.	(16a-Jk	.	16ff-'JJ	.	.
16C-LL	.	16g-KL)	.	16b--XKL)	.	(16.bb--XLL	.	V7
16C-	.	8g-	.	8b--	.	.	.	.
.	.	.	.	.	.	32gg-K)	.	.
16C	.	.	.	.	.	16ee-'	.	#viio7/vi
16CJJ	.	16g-Jk	.	16b--Jk	.	16ee-'JJ	.	.
=70	=70	=70	=70	=70	=70	=70	=70	=70
16D-LL	.	(8f-X	.	(4a-	.	(32ff-XLLL	.	vi
.	.	.	.	.	.	32ee-	.	.
16D-	.	.	.	.	.	32dd-	.	.
.	.	.	.	.	.	32cc-X	.	.
16D-	.	4F-X)	.	.	.	32b--X	.	.
.	.	.	.	.	.	32a-	.	.
16D-JJ	.	.	.	.	.	32g-	.	.
.	.	.	.	.	.	32f-XJJJ)	.	.
16BB--XLL	.	.	.	4g-)	.	(32dd-LLL	.	ii65
.	.	.	.	.	.	32cc-	.	.
16BB--	.	.	.	.	.	32b--	.	.
.	.	.	.	.	.	32a-	.	.
16BB-	.	8F-	.	.	.	32g-	.	#viio7/V
.	.	.	.	.	.	32f-	.	.
16BB-JJ	.	.	.	.	.	32e-	.	.
.	.	.	.	.	.	32d-JJJ)	.	.
=71	=71	=71	=71	=71	=71	=71	=71	=71
!	!	!	!	!	!LO:DY:a	!	!	!
16C-XLL	f	(16.A-LL	f	(16.cc-XLL	f f	2c-X	.	V7
16C-	.	.	.	.	.	.	.	.
.	.	32F-XK)	.	32a-K)	.	.	.	.
16C-	.	16A-'	.	16f-X'	.	.	.	.
16C-JJ	.	16A-'JJ	.	16f-'JJ	.	.	.	.
16C-LL	.	(16.E-LL	.	(16.b--XLL	.	.	.	.
16C-	.	.	.	.	.	.	.	.
.	.	32G-K)	.	32g-K)	.	.	.	.
16C-	.	16B--X'	.	16e-'	.	.	.	.
16C-JJ	.	16B--'JJ	.	16e-'JJ	.	.	.	.
=72	=72	=72	=72	=72	=72	=72	=72	=72
(8FF-XL	p	8A-L	p	16f-X	p	(8a-L	p	I\\
.	.	.	.	8c-XL	.	.	.	.
8AA-	.	(8A-	.	.	.	8f-X	.	I6
.	.	.	.	8c-	.	.	.	.
8BB--X	.	8G-	.	.	.	8e-	.	V2
.	.	.	.	8c-	.	.	.	.
8AA-J)	.	8A-J)	.	.	.	8f-J)	.	I6
.	.	.	.	16c-Jk	.	.	.	.
=73	=73	=73	=73	=73	=73	=73	=73	=73
(8GG-L	.	8d-L	.	16d-KL	.	(8b--XL	.	ii
.	.	.	.	8d-	.	.	.	.
8BB--X	.	8B--X	.	.	.	8g-	.	ii6
.	.	.	.	8d-	.	.	.	.
8C-X	.	8A-	.	.	.	8f	.	V2/ii
.	.	.	.	8d-	.	.	.	.
8BB--J)	.	8B--J	.	.	.	8g-J)	.	ii6
.	.	.	.	16d-Jk	.	.	.	.
=74	=74	=74	=74	=74	=74	=74	=74	=74
(8AA-L	.	(8f-XL	.	16c-XKL	.	(8cc-XL	.	I6
.	.	.	.	8f-X	.	.	.	.
8C-X	.	8c-X	.	.	.	8a-	.	I64
.	.	.	.	8f-	.	.	.	.
8D-	.	8B-	.	.	.	8g	.	#iio43
.	.	.	.	8f-	.	.	.	.
8C-J)	.	8c-J)	.	.	.	8a-J)	.	I64
.	.	.	.	[16f-Jk	.	.	.	.
=75	=75	=75	=75	=75	=75	=75	=75	=75
8BB--XL	.	16d-KL	.	16f-KL]	.	(8b--XL	.	ii6
.	.	8B--X	.	8d-	.	.	.	.
(8BB--	.	.	.	.	.	8g-	.	.
.	.	[16B--Jk	.	[16d-Jk	.	.	.	.
8C-X)	.	(16B--LL]	.	16d-LL]	.	8f-X	.	V7(4)
.	.	16A-)	.	16c-X	.	.	.	.
8C-J	.	16B--	.	16c-	.	8e-J)	.	V7
.	.	16B--JJ	.	16c-JJ	.	.	.	.
=76	=76	=76	=76	=76	=76	=76	=76	=76
(16F-XLL	.	(8F-XL	.	(8.a-L	.	(8.aa-L	.	I\\
16c-X)	.	.	.	.	.	.	.	.
16c-	.	8A-	.	.	.	.	.	.
16c-JJ	.	.	.	32g-LL	.	32gg-LL	.	.
.	.	.	.	32f-XJJJ)	.	32ff-XJJJ)	.	.
16c-LL	.	8B--X	.	(8e-L	.	(8ee-L	.	V7
16c-	.	.	.	.	.	.	.	.
16c-	.	8A-J)	.	8f-J)	.	8ff-J)	.	V(64)
16c-JJ	.	.	.	.	.	.	.	.
=77	=77	=77	=77	=77	=77	=77	=77	=77
16c-XLL	.	(8G-L	.	(8.b--XL	.	(8.bb--XL	.	V7
16c-	.	.	.	.	.	.	.	.
16c-	.	8B--X	.	.	.	.	.	.
16c-JJ	.	.	.	32a-LL	.	32aa-LL	.	.
.	.	.	.	32g-JJJ)	.	32gg-JJJ)	.	.
16c-LL	.	8c-X	.	(8fL	.	(8ffL	.	.
16c-	.	.	.	.	.	.	.	.
16c-	.	8B--J)	.	8g-J)	.	8gg-J)	.	.
16c-JJ	.	.	.	.	.	.	.	.
=78	=78	=78	=78	=78	=78	=78	=78	=78
!LO:TX:b:t=cresc.	!	!LO:TX:b:t=cresc.	!	!LO:TX:b:t=cresc.	!	!LO:TX:b:t=cresc.	!	!
(16c-XLL	.	(8A-L	.	(8.cc-XL	.	(8.ccc-XL	.	I
16f-X)	.	.	.	.	.	.	.	.
16f-	.	8c-X	.	.	.	.	.	.
16f-JJ	.	.	.	32b-LL	.	32bb-LL	.	.
.	.	.	.	32a-JJJ)	.	32aa-JJJ)	.	.
16f-LL	.	8d-	.	(8gL	.	(8ggL	.	#iio2
16f-	.	.	.	.	.	.	.	.
16f-	.	8c-J)	.	8a-J)	.	8aa-J)	.	I
16f-JJ	.	.	.	.	.	.	.	.
=79	=79	=79	=79	=79	=79	=79	=79	=79
16f-XLL	.	(8d-L	.	(8b-L	.	(8.bb-L	.	v.iio6
16d-	.	.	.	.	.	.	.	.
16d-	.	8dd-	.	8ff-X	.	.	.	.
16d-JJ	.	.	.	.	.	32ddd-LL	.	.
.	.	.	.	.	.	32fff-XJJJ)	.	.
16e-LL	.	8cc-X	.	8ee-	.	(8aa-L	.	V(64)
16e-	.	.	.	.	.	.	.	.
16E-	.	8b-J)	.	8dd-J)	.	8ggtJ)	.	V7
16E-JJ	.	.	.	.	.	.	.	.
=80	=80	=80	=80	=80	=80	=80	=80	=80
8A-	p	(8a-L	p <	(8cc-XL	p <	(32aa-LLL	p	i\\
.	.	.	.	.	.	32eee-	.	.
.	.	.	.	.	.	32ddd	.	.
.	.	.	.	.	.	32eee-JJJ	.	.
8r	.	8cc-X	.	8ee-	.	32ddd-XLLL	.	.
.	.	.	.	.	.	32ccc-X	.	.
.	.	.	.	.	.	32bb-	.	.
.	.	.	.	.	.	32aa-JJJ	.	.
4r	.	8dd-	[ >	8ff-X	[ >	32ggLLL	.	#viio43
.	.	.	.	.	.	32aa-	.	.
.	.	.	.	.	.	32bb-	.	.
.	.	.	.	.	.	32ggJJJ	.	.
.	.	8cc-J)	]]	8ee-J)	]]	32aa-LLL	.	i6
.	.	.	.	.	.	32bb-	.	.
.	.	.	.	.	.	32ccc-	.	.
.	.	.	.	.	.	32aa-JJJ)	.	.
=81	=81	=81	=81	=81	=81	=81	=81	=81
16AA-KL	.	32r	.	(8cc-XL	<	(8aa-L	<	i[i64
.	.	(32ee-LLL	.	.	.	.	.	.
8A-	.	32dd	.	.	.	.	.	.
.	.	32ee-JJJ	.	.	.	.	.	.
.	.	32dd-XLLL	.	8ee-	.	8ccc-X	.	.
.	.	32cc-X	.	.	.	.	.	.
8A-	.	32b-	.	.	.	.	.	.
.	.	32a-JJJ	.	.	.	.	.	.
.	.	32gLLL	.	8ff-X	[ >	8ddd-	[ >	#viio7
.	.	32b-	.	.	.	.	.	.
8A-	.	32a-	.	.	.	.	.	.
.	.	32gJJJ	.	.	.	.	.	.
.	.	32g-XLLL	.	8ee-J)	]]	8cccJ)	]]	#viio43/iv]
.	.	32b--X	.	.	.	.	.	.
16A-Jk	.	32a-	.	.	.	.	.	.
.	.	32g-JJJ)	.	.	.	.	.	.
=82	=82	=82	=82	=82	=82	=82	=82	=82
8D-	.	8f-XL	<	(8dd-L	<	(32ddd-'LLL	.	iv
.	.	.	.	.	.	32aa-	.	.
.	.	.	.	.	.	32gg	.	.
.	.	.	.	.	.	32ffJJJ	.	.
8r	.	(8f-	.	8a-	.	32gg-XLLL	.	i.i
.	.	.	.	.	.	32ff-X	.	.
.	.	.	.	.	.	32ee-	.	.
.	.	.	.	.	.	32dd-JJJ	.	.
4r	.	8g-	[ >	8b--X	[ >	32ccLLL	.	#viio43
.	.	.	.	.	.	32dd-	.	.
.	.	.	.	.	.	32ee-	.	.
.	.	.	.	.	.	32ccJJJ	.	.
.	.	8f-J)	]]	8a-J)	]]	32dd-LLL	.	i
.	.	.	.	.	.	32ee-	.	.
.	.	.	.	.	.	32ff-	.	.
.	.	.	.	.	.	32dd-JJJ)	.	.
=83	=83	=83	=83	=83	=83	=83	=83	=83
16D-KL	.	32r	.	(8ff-XL	<	(8ddd-L	<	i[i64
.	.	(32a-LLL	.	.	.	.	.	.
8d-	.	32g	.	.	.	.	.	.
.	.	32a-JJJ	.	.	.	.	.	.
.	.	32g-XLLL	.	8aa-	.	8fff-X	.	i6
.	.	32f-X	.	.	.	.	.	.
8d-	.	32e-	.	.	.	.	.	.
.	.	32d-JJJ	.	.	.	.	.	.
.	.	32cLLL	.	8bb--X	[ >	8ggg-	[ >	#viio7
.	.	32e-	.	.	.	.	.	.
8d-	.	32d-	.	.	.	.	.	.
.	.	32cJJJ	.	.	.	.	.	.
.	.	32c-XLLL	.	8aa-J)	]]	8fffJ)	]]	V7/iv
.	.	32e--X	.	.	.	.	.	.
16d-Jk	.	32d-	.	.	.	.	.	.
.	.	32c-JJJ)	.	.	.	.	.	.
=84	=84	=84	=84	=84	=84	=84	=84	=84
8G-	.	8B--X	.	8gg-'	.	(32ggg-'LLL	.	iv6]
.	.	.	.	.	.	32ddd-	.	.
.	.	.	.	.	.	32ccc	.	.
.	.	.	.	.	.	32ddd-JJJ	.	.
8r	.	(8b--XL	<	(8dd-'L	<	32ccc-XLLL	.	.
.	.	.	.	.	.	32bb--X	.	.
.	.	.	.	.	.	32aa-	.	.
.	.	.	.	.	.	32gg-JJJ	.	.
4r	.	8cc-X	>	8ee--X	>	32ffLLL	.	#viio43/iv
.	.	.	.	.	.	32gg-	.	.
.	.	.	.	.	.	32aa-	.	.
.	.	.	.	.	.	32ffJJJ	.	.
.	.	8b--J)	] ]]	8dd-J)	] ]]	32gg-LLL	.	iv6
.	.	.	.	.	.	32aa-	.	.
.	.	.	.	.	.	32bb--	.	.
.	.	.	.	.	.	32gg-JJJ)	.	.
=85	=85	=85	=85	=85	=85	=85	=85	=85
16GG-KL	.	32r	.	(8gg-L	<	(8bb--XL	<	iv
.	.	(32dd-LLL	.	.	.	.	.	.
8G-	.	32cc	.	.	.	.	.	.
.	.	32dd-JJJ	.	.	.	.	.	.
.	.	32cc-XLLL	.	8bb--X	.	8ddd-	.	.
.	.	32b--X	.	.	.	.	.	.
8G-	.	32a-	.	.	.	.	.	.
.	.	32g-JJJ	.	.	.	.	.	.
.	.	32fLLL	.	8ccc-X	[ >	8eee--X	[ >	iv(64)
.	.	32g-	.	.	.	.	.	.
8G-	.	32a-	.	.	.	.	.	.
.	.	32fJJJ	.	.	.	.	.	.
.	.	32g-LLL	.	8bb--J)	]]	8ddd-J)	]]	iv
.	.	32a-	.	.	.	.	.	.
16G-Jk	.	32b--	.	.	.	.	.	.
.	.	32g-JJJ)	.	.	.	.	.	.
=86	=86	=86	=86	=86	=86	=86	=86	=86
(8GG-L	pp	16B--XKL	pp	(8dd-L	pp	32r	.	iv
.	.	.	.	.	.	(32ddd-LLL	pp	.
.	.	8d-	.	.	.	32ccc	.	.
.	.	.	.	.	.	32ddd-JJJ	.	.
8BB--X	.	.	.	8g-	.	32ccc-XLLL	.	iv6
.	.	.	.	.	.	32bb--X	.	.
.	.	8d-	.	.	.	32aa-	.	.
.	.	.	.	.	.	32gg-JJJ	.	.
8C-X)	.	.	.	8f	.	32ffLLL	.	V2/iv
.	.	.	.	.	.	32gg-	.	.
.	.	8e--X	.	.	.	32aa-	.	.
.	.	.	.	.	.	32ffJJJ	.	.
[8BB--J	.	.	.	8g-J)	.	32gg-LLL	.	iv6
.	.	.	.	.	.	32aa-	.	.
.	.	16d-Jk	.	.	.	32bb--	.	.
.	.	.	.	.	.	32gg-JJJ)	.	.
=87	=87	=87	=87	=87	=87	=87	=87	=87
!LO:TX:b:t=cresc.	!	!LO:TX:b:t=cresc.	!	!LO:TX:b:t=cresc.	!	!LO:TX:b:t=cresc.	!	!
8BB--L]	.	16d-KL	.	(8e-L	.	(32ee-LLL	.	ii%43
.	.	.	.	.	.	32ff-X	.	.
.	.	8c	.	.	.	32gg-	.	#vo2
.	.	.	.	.	.	32ee-JJJ	.	.
[8AA--X	.	.	.	8f-XJ	.	32ff-LLL	.	iii(+5)
.	.	.	.	.	.	32gg-	.	.
.	.	8c-X	.	.	.	32aa--X	.	iii
.	.	.	.	.	.	32ff-JJJ	.	.
8AA--]	.	.	.	8d-L)	.	32dd-LLL	.	vio2(2)
.	.	.	.	.	.	32ee--X	.	.
.	.	8B-	.	.	.	32ff-	.	vio2
.	.	.	.	.	.	32dd-JJJ	.	.
[8GG-J	.	.	.	(8e--XJ	.	32ee--LLL	.	.bVII6(#3)
.	.	.	.	.	.	32ff-	.	.
.	.	[16B--XJk	.	.	.	32gg-	.	.bVII6
.	.	.	.	.	.	32ee--JJJ)	.	.
=88	=88	=88	=88	=88	=88	=88	=88	=88
8GG-L]	.	16B--KL]	.	8cL	.	(32ccLLL	.	V2(2)
.	.	.	.	.	.	32dd-	.	.
.	.	8A-	.	.	.	32ee-	.	V2
.	.	.	.	.	.	32ccJJJ	.	.
(8FF-X	.	.	.	8a-J	.	32dd-LLL	.	i6
.	.	.	.	.	.	32ee-	.	.
.	.	8A-	.	.	.	32ff-X	.	.
.	.	.	.	.	.	32dd-JJJ	.	.
8EE-	.	.	.	8g-L	.	32cc-XLLL	.	VII6(6)
.	.	.	.	.	.	32dd-	.	.
.	.	8G-	.	.	.	32ee-	.	VII6
.	.	.	.	.	.	32cc-JJJ	.	.
8D-J	.	.	.	8f-XJ	.	32b--XLLL	.	VI6(6)
.	.	.	.	.	.	32cc-	.	.
.	.	[16F-XJk	.	.	.	32dd-	.	VI6
.	.	.	.	.	.	32b--JJJ)	.	.
=89	=89	=89	=89	=89	=89	=89	=89	=89
8CL	.	16F-KL]	.	8e-L)	.	(32a-LLL	.	V6
.	.	.	.	.	.	32ccc	.	.
.	.	8E-	.	.	.	32bb-	.	.
.	.	.	.	.	.	32aa-JJJ	.	.
8C-X	.	.	.	(8ee-J	.	32ggLLL	.	v6
.	.	.	.	.	.	32aa-	.	.
.	.	8e-	.	.	.	32bb-	.	.
.	.	.	.	.	.	32aa-JJJ	.	.
8BB-	.	.	.	8ff-XL	.	32ggLLL	.	#viio43/V
.	.	.	.	.	.	32fff-X	.	.
.	.	8d-	.	.	.	32eee-	.	.
.	.	.	.	.	.	32ddd-JJJ	.	.
8BB--XJ)	.	.	.	8gJ)	.	32cccLLL	.	.Ger6
.	.	.	.	.	.	32ddd-	.	.
.	.	16cJk	.	.	.	32eee-	.	.
.	.	.	.	.	.	32ddd-JJJ)	.	.
=90	=90	=90	=90	=90	=90	=90	=90	=90
8AA-	p	16c'LL	p	4a-	p	8ccc	p	V\\
.	.	16A-'	.	.	.	.	.	.
8r	.	16c'	.	.	.	8r	.	I.V[V6
.	.	16A-'JJ	.	.	.	.	.	.
4r	.	16d-'LL	.	(32gLLL	.	4r	.	I
.	.	.	.	32a-	.	.	.	.
.	.	16A-'	.	32b-	.	.	.	.
.	.	.	.	32ccJJJ	.	.	.	.
.	.	16d-'	.	32dd-LLL	.	.	.	.
.	.	.	.	32b-	.	.	.	.
.	.	16A-'JJ	.	32a-	.	.	.	.
.	.	.	.	32gJJJ)	.	.	.	.
=91	=91	=91	=91	=91	=91	=91	=91	=91
16AA-'LL	.	(16cLL	.	(16.ee-LL	.	[8ee-L	.	V6
16A-'	.	16e-	.	.	.	.	.	.
.	.	.	.	32ccJK)	.	.	.	.
16c'	.	16a-	.	8a-'J	.	(32ee-LL]	.	.
.	.	.	.	.	.	32ccc	.	.
16A-'JJ	.	16ccJJ)	.	.	.	32ccc	.	.
.	.	.	.	.	.	32aa-JJJ)	.	.
16d-'LL	.	16ee-'LL	.	4r	.	(32aa-LLL	.	V2/V
.	.	.	.	.	.	32gg)	.	.
16A-'	.	16ee-'	.	.	.	(32gg	.	.
.	.	.	.	.	.	32ddd-JJJ)	.	.
16d-'	.	16ee-'	.	.	.	(32ddd-LLL	.	.
.	.	.	.	.	.	32bb-)	.	.
16A-'JJ	.	16ee-'JJ	.	.	.	(32bb-	.	.
.	.	.	.	.	.	32ggJJJ)	.	.
=92	=92	=92	=92	=92	=92	=92	=92	=92
8A-	.	16cc'LL	.	[8aa-L	.	(16.eee-LL	.	V6
.	.	16a-'	.	.	.	.	.	.
.	.	.	.	.	.	32cccJK)	.	.
8r	.	16cc'	.	(32aa-LL]	.	8aa-'J	.	.
.	.	.	.	32ccc	.	.	.	.
.	.	16a-'JJ	.	32bb-	.	.	.	.
.	.	.	.	32aa-JJJ)	.	.	.	.
4r	.	16dd-'LL	.	(32ggLLL	.	4r	.	V2/V
.	.	.	.	32aa-	.	.	.	.
.	.	16a-'	.	32bb-	.	.	.	.
.	.	.	.	32cccJJJ	.	.	.	.
.	.	16dd-'	.	32ddd-LLL	.	.	.	.
.	.	.	.	32bb-	.	.	.	.
.	.	16a-'JJ	.	32aa-	.	.	.	.
.	.	.	.	32ggJJJ)	.	.	.	.
=93	=93	=93	=93	=93	=93	=93	=93	=93
16AA-'LL	.	(16cLL	.	(16.eee-LL	.	[8aaa-L	.	V6
16A-'	.	16e-	.	.	.	.	.	.
.	.	.	.	32cccJK)	.	.	.	.
16c'	.	16a-	.	8aa-'	.	(32aaa-LL]	.	.
.	.	.	.	.	.	32cccc	.	.
16A-'JJ	.	16ccJJ)	.	.	.	32bbb-	.	.
.	.	.	.	.	.	32aaa-JJJ)	.	.
16d-'LL	.	16ee-'LL	.	16r	.	(32aaa-LLL	.	V2/V
.	.	.	.	.	.	32ggg)	.	.
16A-'	.	16d-'	.	16e-'L	.	(32ggg	.	.
.	.	.	.	.	.	32dddd-JJJ)	.	.
16d-'	.	16d-'	.	16e-'	.	(32dddd-LLL	.	.
.	.	.	.	.	.	32bbb-)	.	.
16A-'JJ	.	16d-'JJ	.	16e-'JJ	.	(32bbb-	.	.
.	.	.	.	.	.	32gggJJJ)	.	.
=94	=94	=94	=94	=94	=94	=94	=94	=94
!	!	!LO:TX:b:t=decresc.	!	!	!	!	!	!
!	!	!LO:TX:a:t=decresc.	!	!	!	!LO:TX:b:t=decresc.	!	!
8A-	.	16c'LL	.	16e-'LL	.	8aaa-'L	.	V6]
.	.	16c'	.	16a-'	.	.	.	.
8r	.	16e-'	.	16cc'	.	16r	.	.
.	.	16r	.	16r	.	(32gggLL	.	.
.	.	.	.	.	.	32bbb-JJJ)	.	.
4r	.	16r	.	16r	.	8aaa-'L	.	V
.	.	16a-'	.	16cc'	.	.	.	.
.	.	16cc'JJ	.	16ee-'JJ	.	16r	.	.
.	.	16r	.	16r	.	(32gggLL	.	.
.	.	.	.	.	.	32bbb-JJJ)	.	.
=95	=95	=95	=95	=95	=95	=95	=95	=95
2r	.	16r	.	16r	.	8aaa-L	.	I.V65
.	.	16cc'LL	.	16ee-'LL	.	.	.	.
.	.	16ee-'JJ	.	16gg-'JJ	.	16r	.	.
.	.	16r	.	16r	.	16ggg'Jk	.	.
.	.	4r	.	4r	.	16aaa-'LL	.	.
.	.	.	.	.	.	16ggg'	.	.
.	.	.	.	.	.	16aaa-'	.	.
.	.	.	.	.	.	16ggg'JJ	.	.
=96	=96	=96	=96	=96	=96	=96	=96	=96
2r	.	2r	.	4r	.	16ggg-LL	pp	.
.	.	.	.	.	.	16r	.	.
.	.	.	.	.	.	16eee-	.	.
.	.	.	.	.	.	16r	.	.
.	.	.	.	16gg-LL	pp	16cccJJ	.	.
.	.	.	.	16r	.	16r	.	.
.	.	.	.	16ee-JJ	.	8r	.	.
.	.	.	.	16r	.	.	.	.
=97	=97	=97	=97	=97	=97	=97	=97	=97
2r	.	2r	.	8cc	.	16aaa-LL	.	.
.	.	.	.	.	.	16r	.	.
.	.	.	.	8r	.	16fff	.	I
.	.	.	.	.	.	16r	.	.
.	.	.	.	16ffLL	.	16ddd-JJ	.	.
.	.	.	.	16r	.	16r	.	.
.	.	.	.	16dd-JJ	.	8r	.	.
.	.	.	.	16r	.	.	.	.
=98	=98	=98	=98	=98	=98	=98	=98	=98
2r	.	16g-LL	pp	16a-'LL	.	16ccc'LL	.	V65
.	.	16r	.	16aa-'	.	16ddd-'	.	.
.	.	16e-	.	16aa-'	.	16eee-'	.	.
.	.	16r	.	16aa-'JJ	.	16fff'JJ	.	.
.	.	16c	.	(8.aa-TL	.	8ggg-L	.	.
.	.	16r	.	.	.	.	.	.
.	.	16r	.	.	.	16r	.	.
.	.	16g-JJ	.	32ggLL	.	16ccc'Jk	.	.
.	.	.	.	32aa-JJJ)	.	.	.	.
=99	=99	=99	=99	=99	=99	=99	=99	=99
4r	.	16fLL	.	16a-'LL	.	16ddd-'LL	.	I
.	.	16r	.	16aa-'	.	16eee-'	.	.
.	.	16d-	.	16aa-'	.	16fff'	.	.
.	.	16r	.	16aa-'JJ	.	16ggg-'JJ	.	.
8r	.	16A-	.	(8.aa-TL	.	8aaa-'L	.	V
.	.	16r	.	.	.	.	.	.
16r	.	16r	.	.	.	16r	.	.
16F	pp	16A-JJ	.	32ggLL	.	16ddd-'Jk	.	I6
.	.	.	.	32aa-JJJ)	.	.	.	.
=100	=100	=100	=100	=100	=100	=100	=100	=100
16G-LL	.	16A-'LL	.	16r	.	16r	.	V65
16r	.	16a-'	.	16ccLL	.	16cccLL	.	.
16E-	.	16a-'	.	16r	.	16r	.	.
16r	.	16a-'JJ	.	16ee-	.	16eee-	.	.
16C	.	(8.a-TL	.	16r	.	16r	.	.
16r	.	.	.	16gg-	.	16ggg-	.	.
16r	.	.	.	16r	.	16r	.	.
16G-JJ	.	32gLL	.	16ccJJ	.	16cccJJ	.	.
.	.	32a-JJJ)	.	.	.	.	.	.
=101	=101	=101	=101	=101	=101	=101	=101	=101
16FLL	.	16A-'LL	.	16r	.	16r	.	I
16r	.	16a-'	.	16dd-LL	.	16ddd-LL	.	.
16D-	.	16a-'	.	16r	.	16r	.	.
16r	.	16a-'JJ	.	16ff	.	16fff	.	.
16AA-	.	(8.a-TL	.	16r	.	16r	.	.
16r	.	.	.	16aa-	.	16aaa-	.	.
16r	.	.	.	16r	.	16r	.	.
16FJJ	.	32gLL	.	16dd-JJ	.	16ddd-JJ	.	.
.	.	32a-JJJ)	.	.	.	.	.	.
=102	=102	=102	=102	=102	=102	=102	=102	=102
!LO:TX:b:t=cresc.	!	!LO:TX:b:t=cresc.	!	!	!	!LO:TX:b:t=cresc.	!	!
16G-LL	.	16A-LL	.	16r	.	16r	.	V7
!	!	!	!	!LO:TX:b:t=cresc.	!	!	!	!
16r	.	16a-	.	16ccLL	.	16cccLL	.	.
16E-	.	16a-	.	16r	.	16r	.	.
16r	.	16a-JJ	.	16ee-	.	16eee-	.	.
16C	.	16a-LL	.	16r	.	16r	.	.
16r	.	16A-	.	16gg-	.	16ggg-	.	.
16AA-JJ	.	16A-	.	16r	.	16r	.	.
16r	.	16A-JJ	.	16ccJJ	.	16cccJJ	.	.
=103	=103	=103	=103	=103	=103	=103	=103	=103
4BB--X	f	4B--X	f	4dd-	f	4ddd-	f	.bVI
(4BB--	.	(4B--	.	(4b--X	.	(4b--X	.	.
=104	=104	=104	=104	=104	=104	=104	=104	=104
4GG-	.	4G-	.	4g-	.	4g-	.	V7/bIII
4EE-)	.	4E-)	.	4e-)	.	4e-)	.	.
=105	=105	=105	=105	=105	=105	=105	=105	=105
!	!	!	!LO:DY:a	!	!	!	!	!
(4E-	sf	(4G-	sf sf	[4c-X	.	(8.cc-XL	sf	V65/bIII
.	.	.	.	.	.	16b--XJk	.	.
8F-XL)	.	8A-L)	.	8c-L]	.	8a-L)	.	.bIII
!	!	!	!LO:DY:a	!	!	!	!	!
(8FJ	sf	(8A-J	sf sf	[8d-J	.	(16.dd-L	sf	V6/iv
.	.	.	.	.	.	32cc-JJk	.	.
=106	=106	=106	=106	=106	=106	=106	=106	=106
8G-)	.	8B--X)	.	8d-]	.	8b--X)	.	iv
4G-	ff >	4B--	ff >	(4e--X	ff >	(4ee--X	ff >	iv(6)
8G-	]]	8B--	]]	8d-	]]	8dd-	]]	iv
=107	=107	=107	=107	=107	=107	=107	=107	=107
8G-L	p	8B--XL	p	8c)	p	8ccL)	p	viio43
8r	.	8r	.	(8ee-L	<	8r	.	.
8r	.	8r	.	8ff-X	>	8r	.	.
!	!LO:DY:a	!	!	!	!	!	!	!
16.g-L	pp pp	16.ccL	.	8ee-J)	] ]]	16.bb--XL	pp	.
32g-JJk	.	32ccJJk	.	.	.	32bb--JJk	.	.
=108	=108	=108	=108	=108	=108	=108	=108	=108
8g-L	.	8ccL	.	(8ccL	<	8bb--XL	.	.
8r	.	8r	.	8ee-J	.	8r	.	.
8r	.	8r	.	8ff-XL	[ >	8r	.	.
!LO:TX:b:t=cresc.	!	!LO:TX:b:t=cresc.	!	!LO:TX:b:t=cresc.	!	!LO:TX:b:t=cresc.	!	!
16.g-L	.	16.b--XL	.	16.ee-L)	.	16.cccL	.	.
32g-JJk	.	32b--JJk	.	32ee-JJk	]	32cccJJk	.	.
=109	=109	=109	=109	=109	=109	=109	=109	=109
(4g	ff	(4b-	ff	(4ff-X	ff	[4ddd-	ff	#viio7/V
8a-L)	>	8a-L	>	8ffL	>	(16ddd-LL]	>	V(64)
.	.	.	.	.	.	32cccL	.	.
.	.	.	.	.	.	32bb-JJJ	.	.
8A-J	]]	8g-J)	]]	8ccJ)	]]	32aa-LLL	.	V7
.	.	.	.	.	.	32gg-	.	.
.	.	.	.	.	.	32ff	.	.
.	.	.	.	.	.	32ee-JJJ)	]]	.
=110	=110	=110	=110	=110	=110	=110	=110	=110
(16A-LL	p	(16fLL	p	(8dd-L	p	(8dd-L	p	I64
16F	.	16A-)	.	.	.	.	.	.
16E-	.	16A-'	.	8f	.	8ff	.	.
16D-JJ)	.	16A-'JJ	.	.	.	.	.	.
(8CL	.	(16e-LL	.	8g-	.	8gg-	.	V65
.	.	16A-	.	.	.	.	.	.
8D-J)	.	16d-	.	8fJ)	.	8ffJ)	.	I
.	.	16A-JJ)	.	.	.	.	.	.
=111	=111	=111	=111	=111	=111	=111	=111	=111
16A-LL	.	(16cLL	.	(8e-L	.	(8ee-L	.	V7
16G-	.	16A-)	.	.	.	.	.	.
16F	.	16A-'	.	8g-	.	8gg-	.	.
16E-JJ	.	16A-'JJ	.	.	.	.	.	.
(8DL	.	(16fLL	.	8a-	.	8aa-	.	#io
.	.	16A-	.	.	.	.	.	.
8E-J)	.	16e-	.	8g-J)	.	8gg-J)	.	V43
.	.	16A-JJ)	.	.	.	.	.	.
=112	=112	=112	=112	=112	=112	=112	=112	=112
(16B-LL	.	16d-LL	.	(8fL	.	(8ffL	.	I64
16A-	.	16d-	.	.	.	.	.	.
16G-	.	16d-	.	8a-	.	8aa-	.	.
16FJJ)	.	16d-JJ	.	.	.	.	.	.
(8EXL	.	(16gLL	.	8b-	.	8bb-	.	#iio7
.	.	16d-	.	.	.	.	.	.
8FJ)	.	16a-	.	8a-J)	.	8aa-J)	.	I6
.	.	16d-JJ)	.	.	.	.	.	.
=113	=113	=113	=113	=113	=113	=113	=113	=113
(8E-L	.	(16b-LL	.	(16a-LL	.	(16aa-LL	.	V7/V
.	.	16d-)	.	16g	.	16gg	.	.
8B-	.	16d-'	.	16f	.	16ff	.	.
.	.	16d-'JJ	.	16e-JJ)	.	16ee-JJ)	.	.
8A-	.	(16d-LL	.	(8.a-L	.	(8.aa-L	.	V7
.	.	16c	.	.	.	.	.	.
8AA-J)	.	16B-	.	.	.	.	.	.
.	.	16A-JJ)	.	16g-XJk)	.	16gg-XJk)	.	.
=114	=114	=114	=114	=114	=114	=114	=114	=114
(8D-L	<	(16A-LL	.	(16g-LL	.	(16gg-LL	.	I\\
.	.	16a-	.	16f	.	16ff	.	.
8F	.	16d-	.	16e-	.	16ee-	.	I6
.	.	16a-JJ	.	16d-JJ)	.	16dd-JJ)	.	.
8G-	[ >	16e-LL	.	(8cL	.	(8ccL	.	V2
.	.	16a-	.	.	.	.	.	.
8FJ)	]]	16d-	.	8d-J)	.	8dd-J)	.	I6
.	.	16a-JJ)	.	.	.	.	.	.
=115	=115	=115	=115	=115	=115	=115	=115	=115
(8E-L	<	(16cLL	.	(16a-LL	.	(16aa-LL	.	V43
.	.	16a-	.	16g-	.	16gg-	.	.
8G-	.	16cc	.	16f	.	16ff	.	V2
.	.	16a-JJ	.	16e-JJ)	.	16ee-JJ)	.	.
8A-	[ >	16bXLL	.	(8dL	.	(8ddL	.	#io2
.	.	16a-	.	.	.	.	.	.
8G-J)	]]	16b	.	8e-J)	.	8ee-J)	.	V2
.	.	16a-JJ)	.	.	.	.	.	.
=116	=116	=116	=116	=116	=116	=116	=116	=116
(8FL	<	(16d-LL	.	(16b-LL	.	(16bb-LL	.	I6
.	.	16dd-	.	16a-	.	16aa-	.	.
8A-	.	16a-	.	16g-	.	16gg-	.	I64
.	.	16dd-JJ	.	16fJJ)	.	16ffJJ)	.	.
8B-	[ >	16gLL	.	(8eXL	.	(8eeXL	.	#iio43
.	.	16dd-	.	.	.	.	.	.
8A-J)	]]	16a-	.	8d-J)	.	8ffJ)	.	I64
.	.	16dd-JJ)	.	.	.	.	.	.
=117	=117	=117	=117	=117	=117	=117	=117	=117
!LO:TX:b:t=cresc.	!	!LO:TX:a:t=cresc.	!	!LO:TX:b:t=cresc.	!	!LO:TX:b:t=cresc.	!	!
(16A-LL	.	8.d-L	.	8.b-L	.	8.bb-L	.	V7/V
16G	.	.	.	.	.	.	.	.
16F	.	.	.	.	.	.	.	.
16E-JJ)	.	16d-Jk	.	16b-Jk	.	16bb-Jk	.	.
(8.A-L	.	(16d-LL	.	8.e-L	.	8.ee-L	.	V
.	.	16c	.	.	.	.	.	.
.	.	16B-	.	.	.	.	.	.
16G-XJk)	.	16A-JJ)	.	16e-Jk	.	16ee-Jk	.	V2
=118	=118	=118	=118	=118	=118	=118	=118	=118
(16G-LL	.	8.c-XL	.	8.a-L	.	8.aa-L	.	iiio
16F	.	.	.	.	.	.	.	.
16E-	.	.	.	.	.	.	.	.
16D-JJ)	.	16c-Jk	.	16a-Jk	.	16aa-Jk	.	V7/IV
8.G-L	.	(16c-LL	.	8.d-L	.	8.dd-L	.	IV
.	.	16B-	.	.	.	.	.	.
.	.	16AX	.	.	.	.	.	.
16G-Jk	.	16B-JJ)	.	16d-Jk	.	16dd-Jk	.	.
=119	=119	=119	=119	=119	=119	=119	=119	=119
(8.E-L	.	(16B-KL	.	16a-KL	.	(16aa-KL	.	ii(4)
.	.	8c	.	(8g-	.	8gg-	.	viio6
16FJk)	.	16d-Jk)	.	16fJk)	.	16ffJk)	.	I6
(8G-L	.	(16dLL	.	16b-LL	.	(16ffLL	.	ii6(7)
.	.	16e-	.	(16b-	.	16ee-	.	ii6
8A-J)	.	16f	.	16a-	.	16dd-	.	V(64)
.	.	16g-JJ)	.	16e-JJ)	.	16ccJJ)	.	V7
=120	=120	=120	=120	=120	=120	=120	=120	=120
24D-'LL	sf	24f'LL	sf	24f'LL	sf	24dd-'LL	sf	I\\
24D-'	.	24A-'	.	24f'	.	24dd-'	.	I
24D-'	.	24A-'	.	24f'	.	24dd-'	.	.
24D-'	.	24A-'	.	24f'	.	24dd-'	.	.
24D-'	.	24A-'	.	24f'	.	24dd-'	.	.
24D-'JJ	.	24A-'JJ	.	24f'JJ	.	24dd-'JJ	.	.
24D-LL	sf	24A-LL	sf	24fLL	sf	24dd-LL	sf	.
24G-	.	24B-	.	24g-	.	24b-	.	IV
24G-	.	24B-	.	24g-	.	24b-	.	.
24G-	.	24B-	.	24g-	.	24b-	.	.
24G-	.	24B-	.	24g-	.	24b-	.	.
24G-JJ	.	24B-JJ	.	24g-JJ	.	24b-JJ	.	.
=121	=121	=121	=121	=121	=121	=121	=121	=121
24G-LL	sf	24B-LL	sf	24g-LL	sf	24b-LL	sf	.
24E-	.	24e-	.	24b-	.	24gg-	.	ii
24E-	.	24e-	.	24b-	.	24gg-	.	.
24E-	.	24e-	.	24b-	.	24gg-	.	.
24E-	.	24e-	.	24b-	.	24gg-	.	.
24E-JJ	.	24e-JJ	.	24b-JJ	.	24gg-JJ	.	.
24E-LL	sf	24e-LL	sf	24b-LL	sf	24gg-LL	sf	.
24D-	.	24b-	.	24gg-	.	24eee-	.	ii2
24D-	.	24b-	.	24gg-	.	24eee-	.	.
24D-	.	24b-	.	24gg-	.	24eee-	.	.
24D-	.	24b-	.	24gg-	.	24eee-	.	.
24D-JJ	.	24b-JJ	.	24gg-JJ	.	24eee-JJ	.	.
=122	=122	=122	=122	=122	=122	=122	=122	=122
8C	f	8a-	f	8gg-	f	24eee-'LL	f	V65
.	.	.	.	.	.	24ddd-'	.	.
.	.	.	.	.	.	24ccc'	.	.
8r	.	8r	.	8r	.	24bb-'	.	.
.	.	.	.	.	.	24aa-'	.	.
.	.	.	.	.	.	24gg-'JJ	.	.
4r	.	4r	.	4r	.	24ff'LL	.	.
.	.	.	.	.	.	24ee-'	.	.
.	.	.	.	.	.	24dd-'	.	.
.	.	.	.	.	.	24cc'	.	.
.	.	.	.	.	.	24b-'	.	.
.	.	.	.	.	.	24a-'JJ	.	.
=123	=123	=123	=123	=123	=123	=123	=123	=123
!	!	!	!	!	!	!LO:TX:b:t=decresc.	!	!
2r	.	2r	.	2r	.	(4g	.	.
.	.	.	.	.	.	4g-X)	.	.
=124	=124	=124	=124	=124	=124	=124	=124	=124
2r	.	2r	.	(8d-L	p	(8fL	p	I
.	.	.	.	8f	.	8a-	.	.
.	.	.	.	8g-	.	8b--X	.	iv
.	.	.	.	8fJ)	.	8a-J)	.	I6
=125	=125	=125	=125	=125	=125	=125	=125	=125
(8d-L	p	(8fL	p	(8.ffL	.	(8aa-L	.	I
8f	.	8a-	.	.	.	16aa-L	.	I6
.	.	.	.	32ee-LL	.	32gg-L	.	.
.	.	.	.	32dd-JJJ)	.	32ffJJJ)	.	.
8g-	.	8b--X	.	(8ccL	.	(8ee-L	.	viio43
8fJ)	.	8a-J)	.	8dd-J)	.	8ffJ)	.	I6
=126	=126	=126	=126	=126	=126	=126	=126	=126
(8.d-L	.	(8.b-L	.	(8gg-L	.	(8bb-L	.	IV64
.	.	.	.	8bb-	.	8ddd-	.	.
32c-XLL	.	32a-LL	.	.	.	.	.	.
32B-JJJ)	.	32g-JJJ)	.	.	.	.	.	.
(8A-L	.	(8fL	.	8ccc-X	.	8eee--X	.	iiio65
8B-J)	.	8g-J)	.	8bb-J)	.	8ddd-J)	.	IV6
=127	=127	=127	=127	=127	=127	=127	=127	=127
(8G-L	.	(8B-L	.	(8.ddd-L	.	(8.bbb-L	.	IV6
8B-	.	8d-	.	.	.	.	.	.
.	.	.	.	32ccc-XLL	.	32aaa-LL	.	.
.	.	.	.	32bb-JJJ)	.	32ggg-JJJ)	.	.
8c-X	.	8e--X	.	(8aa-L	.	(8fffL	.	iiio43/IV
8B-J)	.	8d-J)	.	8bb-J)	.	[8ggg-J)	.	IV6
=128	=128	=128	=128	=128	=128	=128	=128	=128
!LO:TX:b:t=cresc.	!	!LO:TX:b:t=cresc.	!	!LO:TX:b:t=cresc.	!	!LO:TX:b:t=cresc.	!	!
(8cL	.	(8e-L	.	(8bb--XL	.	(8ggg-L]	.	viio7
8d-	.	8fJ)	.	[8aa-J)	.	[8fffJ)	.	I
8G-	.	16b-'LL	.	(16aa-LL]	.	(16fffLL]	.	ii6(2)
.	.	(16b-	.	16gg-	.	16eee-	.	ii6
8A-J)	.	16a-	.	16ff	.	16ddd-	.	V7
.	.	16g-JJ)	.	16ee-JJ)	.	16cccJJ)	.	.
=129	=129	=129	=129	=129	=129	=129	=129	=129
24D-LL	sf	24fLL	sf	24dd-LL	sf	24ddd-LL	sf	I\\
24D-	.	24A-	.	24f	.	24dd-	.	I
24D-	.	24A-	.	24f	.	24dd-	.	.
24D-	.	24A-	.	24f	.	24dd-	.	.
24D-	.	24A-	.	24f	.	24dd-	.	.
24D-JJ	.	24A-JJ	.	24fJJ	.	24dd-JJ	.	.
24D-LL	sf	24A-LL	sf	24fLL	sf	24dd-LL	sf	.
24G-	.	24B-	.	24g-	.	24b-	.	IV
24G-	.	24B-	.	24g-	.	24b-	.	.
24G-	.	24B-	.	24g-	.	24b-	.	.
24G-	.	24B-	.	24g-	.	24b-	.	.
24G-JJ	.	24B-JJ	.	24g-JJ	.	24b-JJ	.	.
=130	=130	=130	=130	=130	=130	=130	=130	=130
!	!	!	!	!	!LO:DY:a	!	!	!
24G-LL	sf	24B-LL	sf	24g-LL	sf sf	24b-LL	.	.
24E-	.	24e-	.	24b-	.	24gg-	.	ii
24E-	.	24e-	.	24b-	.	24gg-	.	.
24E-	.	24e-	.	24b-	.	24gg-	.	.
24E-	.	24e-	.	24b-	.	24gg-	.	.
24E-JJ	.	24e-JJ	.	24b-JJ	.	24gg-JJ	.	.
24E-LL	sf	24e-LL	sf	24b-LL	sf	24gg-LL	sf	.
24D-	.	24g-	.	24b--X	.	24eee-	.	ii%2
24D-	.	24g-	.	24b--	.	24eee-	.	.
24D-	.	24g-	.	24b--	.	24eee-	.	.
24D-	.	24g-	.	24b--	.	24eee-	.	.
24D-JJ	.	24g-JJ	.	24b--JJ	.	24eee-JJ	.	.
=131	=131	=131	=131	=131	=131	=131	=131	=131
24D-LL	sf	24g-LL	sf	24b--XLL	sf	24eee-LL	sf	.
24C	.	24e-	.	24a-	.	24ggg-	.	V65
24C	.	24e-	.	24a-	.	24ggg-	.	.
24C	.	24e-	.	24a-	.	24ggg-	.	.
24C	.	24e-	.	24a-	.	24ggg-	.	.
24CJJ	.	24e-JJ	.	24a-JJ	.	24ggg-JJ	.	.
24CLL	sf	24e-LL	sf	24a-LL	sf	24ggg-LL	sf	.
24BB-	.	24d-	.	24dd-	.	24ggg-	.	IV6
24BB-	.	24d-	.	24dd-	.	24ggg-	.	.
24BB-	.	24d-	.	24dd-	.	24ggg-	.	.
24BB-	.	24d-	.	24dd-	.	24ggg-	.	.
24BB-JJ	.	24d-JJ	.	24dd-JJ	.	24ggg-JJ	.	.
=132	=132	=132	=132	=132	=132	=132	=132	=132
24BB--XLL	ff	24cLL	ff	24ccLL	ff	24ggg-'LL	ff	viio2
24BB--	.	24c	.	24e- 24g-	.	24eee-'	.	.
24BB--	.	24c	.	24e- 24g-	.	24ccc'	.	.
24BB--	.	24c	.	24e- 24g-	.	24gg-'	.	.
24BB--	.	24c	.	24e- 24g-	.	24ee-'	.	.
24BB--JJ	.	24cJJ	.	24e-JJ 24g-	.	24cc'JJ	.	.
24BB--LL	.	24cLL	.	24e-LL 24g-	.	24gg-LL	.	.
24BB--	.	24c	.	24e- 24g-	.	24ee-	.	.
24BB--	.	24c	.	24e- 24g-	.	24cc	.	.
24BB--	.	24c	.	24e- 24g-	.	24g-	.	.
24BB--	.	24c	.	24e- 24g-	.	24e-	.	.
24BB--JJ	.	24cJJ	.	24e-JJ 24g-	.	24cJJ	.	.
=133	=133	=133	=133	=133	=133	=133	=133	=133
2AA-	f	8A- 8e-	f	8e- 8cc	f	8ee- 8ccc	f	V\\
.	.	8r	.	8r	.	8r	.	.
.	.	4r	.	4r	.	4r	.	.
=134	=134	=134	=134	=134	=134	=134	=134	=134
(4GG	.	2r	.	2r	.	2r	.	.
4GG-X)	.	.	.	.	.	.	.	.
=135	=135	=135	=135	=135	=135	=135	=135	=135
(8FFL	pp	16d-KL	.	16d-KL	pp	4r	.	I6
.	.	8d-	pp	8dd-	.	.	.	.
8AA-	.	.	.	.	.	.	.	.
.	.	8d-	.	8dd-	.	.	.	.
8BB--X	.	.	.	.	.	8r	.	iv6
.	.	8d-	.	8dd-	.	.	.	.
8AA-J)	.	.	.	.	.	(8ff	pp	I64
.	.	[16d-Jk	.	[16dd-Jk	.	.	.	.
=136	=136	=136	=136	=136	=136	=136	=136	=136
(8BB--XL	.	16d-KL]	.	16dd-KL]	.	8gg-L)	.	iv6
.	.	8g-	.	8b--X	.	.	.	.
8D-	.	.	.	.	.	8r	.	.
.	.	8g-	.	8b--	.	.	.	.
8E--X	.	.	.	.	.	8r	.	iv64(6)
.	.	8g-	.	8b--	.	.	.	.
8D-J)	.	.	.	.	.	(8bb--XJ	.	iv64
.	.	[16g-Jk	.	(16b--Jk	.	.	.	.
=137	=137	=137	=137	=137	=137	=137	=137	=137
(8CL	.	16g-KL]	.	16a-KL)	.	8aa-L)	.	V65
.	.	8g-	.	8a-	.	.	.	.
8cJ	.	.	.	.	.	8r	.	.
.	.	16g-Jk	.	[16a-Jk	.	.	.	.
8d-L	.	16f-XKL	.	16a-KL]	.	8r	.	i
.	.	8f-	.	8dd-	.	.	.	.
8GJ)	.	.	.	.	.	(8ddd-J	.	#viio7/V
.	.	(16f-Jk	.	[16dd-Jk	.	.	.	.
=138	=138	=138	=138	=138	=138	=138	=138	=138
(8A-L	.	16e-KL)	.	16dd-KL]	.	8ee-L)	.	V(4)
.	.	8e-	.	8dd-	.	.	.	.
8G	.	.	.	.	.	8r	.	V65/V
.	.	(16e-Jk	.	(16dd-Jk	.	.	.	.
8A-	.	16g-KL)	.	16ccKL)	.	8r	.	V7
.	.	8g-	.	8cc	.	.	.	.
8AA-J)	.	.	.	.	.	(8aa-J	.	.
.	.	16g-Jk	.	16ccJk	.	.	.	.
=139	=139	=139	=139	=139	=139	=139	=139	=139
16D-LL	pp	(8fL	pp	(8dd-L	pp	8dd-)	.	I\\
16D-	.	.	.	.	.	.	.	.
16D-	.	8d-	.	8ff	.	8r	.	I[I
16D-JJ	.	.	.	.	.	.	.	.
16D-LL	.	8c	.	8gg-	.	8r	.	viio
16D-	.	.	.	.	.	.	.	.
16D-	.	8d-J)	.	8ffJ)	.	8r	.	I
16D-JJ	.	.	.	.	.	.	.	.
=140	=140	=140	=140	=140	=140	=140	=140	=140
16D-LL	.	4.G-	.	4.cc	.	(8.eee-L	.	V2
16D-	.	.	.	.	.	.	.	.
16D-	.	.	.	.	.	.	.	.
16D-JJ	.	.	.	.	.	32ddd-LL	.	.
.	.	.	.	.	.	32cccJJJ)	.	.
16D-LL	.	.	.	.	.	(16bb-LL	.	.
16D-	.	.	.	.	.	16aa-)	.	.
16D-	.	8g-	.	8cc	.	16aa-'	.	.
16D-JJ	.	.	.	.	.	16aa-'JJ	.	.
=141	=141	=141	=141	=141	=141	=141	=141	=141
16D-LL	.	(8fL	.	(8dd-L	.	8aa-	.	I6
16D-	.	.	.	.	.	.	.	.
16D-	.	32g-LL	.	32ccLL	.	8r	.	.
.	.	32f	.	32dd-	.	.	.	.
16D-JJ	.	32e-	.	32ee-	.	.	.	.
.	.	32d-JJJ)	.	32ffJJJ)	.	.	.	.
16D-LL	.	(8cL	.	(8gg-L	.	8r	.	viio
16D-	.	.	.	.	.	.	.	.
16D-	.	8d-J)	.	8ffJ)	.	8r	.	I
16D-JJ	.	.	.	.	.	.	.	.
=142	=142	=142	=142	=142	=142	=142	=142	=142
16D-LL	.	4.G-	.	4.cc	.	(16eee-LL	.	V2
16D-	.	.	.	.	.	32dddL	.	.
.	.	.	.	.	.	32eee-JJJ	.	.
16D-	.	.	.	.	.	32fffLLL	.	.
.	.	.	.	.	.	32eee-	.	.
16D-JJ	.	.	.	.	.	32ddd-X	.	.
.	.	.	.	.	.	32cccJJJ)	.	.
16D-LL	.	.	.	.	.	16bb-LL	.	.
16D-	.	.	.	.	.	16aa-	.	.
16D-	.	8G-	.	8cc	.	16aa-'	.	.
16D-JJ	.	.	.	.	.	16aa-'JJ	.	.
=143	=143	=143	=143	=143	=143	=143	=143	=143
8D-L	.	8FL	.	(8dd-L	<	(8aa-L	<	I6
8r	.	8r	.	8ff	.	8ddd-	.	.
8r	.	8r	.	8gg-	[ >	8ccc	[ >	viio
16.r	.	16.r	.	8ffJ)	]]	8ddd-J)	]]	I6]
32d-Jkk	<[	32fJkk	<[	.	.	.	.	.
=144	=144	=144	=144	=144	=144	=144	=144	=144
(8e-L	>	(8g-L	>	8r	.	8r	.	.
8d-)	.	8f)	.	(8ddd-L	<	(8fffL	<	I
8r	]	8r	]	8ccc	>	8eeeX	>	.
16r	.	16r	.	8ddd-J)	] ]]	8fffJ)	] ]]	.
16d-Jk	<[	16fJk	<[	.	.	.	.	.
=145	=145	=145	=145	=145	=145	=145	=145	=145
8e-L	>	8g-L	>	8r	.	8r	.	.
8d-	.	8f	.	(8fffL	<	(8aaa-L	<	.
8r	]	8r	]	8eeeX	>	8ggg	>	.
16.r	.	16.r	.	8fffJ)	] ]]	8aaa-J)	] ]]	.
32d-Jkk	.	32fJkk	.	.	.	.	.	.
=146	=146	=146	=146	=146	=146	=146	=146	=146
8A-	p	8e-L	p	8r	.	8r	.	V7
8r	.	8r	.	8cccL	.	8ggg-L	p	.
8AX	.	8e-J	.	8r	.	8r	.	#viio7/vi
8r	.	8r	.	8gg-J	.	8cccJ	.	.
=147	=147	=147	=147	=147	=147	=147	=147	=147
8B-	.	8d-	.	8r	.	8r	.	vi
8r	.	8r	.	8ff	.	8ddd-	.	.
4r	.	4r	.	4r	.	4r	.	.
=148	=148	=148	=148	=148	=148	=148	=148	=148
!LO:TX:b:t=smor -	!	!	!	!	!	!	!	!
8G-	.	8r	.	8r	.	8r	.	IV
!	!	!LO:TX:b:t=smor -	!	!LO:TX:b:t=smor -	!	!LO:TX:b:t=smor -	!	!
8r	.	8g-	.	8b-	.	8bb-	.	.
4r	.	4r	.	4r	.	4r	.	.
=149	=149	=149	=149	=149	=149	=149	=149	=149
!LO:TX:b:t=zan  -	!	!	!	!	!	!	!	!
8A-	.	8r	.	8r	.	8r	.	V7
!	!	!LO:TX:b:t=zan  -	!	!LO:TX:b:t=zan  -	!	!LO:TX:b:t=zan -	!	!
8r	.	8e-	.	8g-	.	8cc	.	.
4r	.	4r	.	4r	.	4r	.	.
=150	=150	=150	=150	=150	=150	=150	=150	=150
!LO:TX:b:t=do	!	!LO:TX:a:t=do	!	!LO:TX:b:t=do	!	!LO:TX:b:t=do	!	!
8D-	.	8d-	.	8f	.	8dd-	.	I
8r	.	8r	.	8r	.	8r	.	.
8D-	pp	8A-	pp	8d-	pp	8f	pp	.
8r	.	8r	.	8r	.	8r	.	.
=151	=151	=151	=151	=151	=151	=151	=151	=151
8D-	.	8F	.	8d-	.	8d-	.	I\\
8r	.	8r	.	8r	.	8r	.	.
4r	.	4r	.	4r	.	4r	.	.
==	==	==	==	==	==	==	==	==
*-	*-	*-	*-	*-	*-	*-	*-	*-
!!!system-decoration: s1,s2,s3,s4
